<?xml version="1.0" encoding="UTF-8"?>
<map version="1.10" tiledversion="1.11.2" orientation="orthogonal" renderorder="right-down" width="6" height="6" tilewidth="20" tileheight="20" infinite="1" nextlayerid="2" nextobjectid="1">
 <tileset firstgid="1" source="inside_tileset.tsx"/>
 <tileset firstgid="161" source="Outside_tileset.tsx"/>
 <layer id="1" name="Tile Layer 1" width="6" height="6">
  <data encoding="csv">
   <chunk x="0" y="-32" width="16" height="16">
0,0,0,0,0,0,0,0,0,0,0,0,0,0,0,0,
0,0,0,0,0,0,0,0,0,0,0,0,0,0,0,0,
0,0,0,0,0,0,0,0,0,0,0,0,0,0,0,0,
0,0,0,0,0,0,0,0,0,0,0,0,0,0,0,0,
0,0,0,0,0,0,0,0,0,0,0,0,0,0,0,0,
0,0,0,0,0,0,0,0,0,0,0,0,0,0,0,0,
0,0,0,0,0,0,0,0,0,0,0,0,0,0,0,0,
0,0,0,0,0,0,0,0,0,0,0,0,0,0,0,0,
0,0,0,0,0,0,0,0,0,0,0,0,0,0,0,0,
0,0,0,0,0,0,0,0,0,0,0,0,0,0,0,0,
0,0,0,0,0,0,0,0,0,0,0,0,0,6,7,7,
0,0,0,0,0,0,0,0,0,0,0,0,0,22,17,17,
0,0,0,0,0,0,0,0,0,0,0,0,0,22,17,17,
0,0,0,0,0,0,0,0,0,0,0,0,0,22,17,23,
0,0,0,0,0,0,0,0,0,0,0,0,0,22,17,24,
0,0,0,0,0,0,0,0,0,0,0,0,0,22,17,24
</chunk>
   <chunk x="16" y="-32" width="16" height="16">
0,0,0,0,0,0,0,0,0,0,0,0,0,0,0,0,
0,0,0,0,0,0,0,0,0,0,0,0,0,0,0,0,
0,0,0,0,0,0,0,0,0,0,0,0,0,0,0,0,
0,0,0,0,0,0,0,0,0,0,0,0,0,0,0,0,
0,0,0,0,0,0,0,0,0,0,0,0,0,0,0,0,
0,0,0,0,0,0,0,0,0,0,0,0,0,0,0,0,
0,0,0,0,0,0,0,0,0,0,0,0,0,0,0,0,
0,0,0,0,0,0,0,0,0,0,0,0,0,0,0,0,
0,0,0,0,0,0,0,0,0,0,0,0,0,0,0,0,
0,0,0,0,0,0,0,0,0,0,0,0,0,0,0,0,
7,7,7,7,7,7,7,7,7,7,7,7,7,8,0,0,
17,17,17,17,17,17,17,17,17,17,17,17,17,24,0,0,
17,17,17,17,17,17,17,17,17,17,17,17,17,24,0,0,
39,39,39,39,39,39,39,39,39,39,23,17,17,23,7,7,
0,0,0,0,0,0,0,0,0,0,22,17,17,17,17,17,
0,0,0,0,0,0,0,0,0,0,22,17,17,17,17,17
</chunk>
   <chunk x="32" y="-32" width="16" height="16">
0,0,0,0,0,0,0,0,0,0,0,0,0,0,0,0,
0,0,0,0,0,0,0,0,0,0,0,0,0,0,0,0,
0,0,0,0,0,0,0,0,0,0,0,0,0,0,0,0,
0,0,0,0,0,0,0,0,0,0,0,0,0,0,0,0,
0,0,0,0,0,0,0,0,0,0,0,0,0,0,0,0,
0,0,0,0,0,0,0,0,0,0,0,0,0,0,0,0,
0,0,6,7,7,7,7,7,7,7,7,7,7,7,7,7,
0,0,22,85,85,1610612854,120,2684354678,17,17,17,17,17,17,17,17,
0,0,22,85,85,18,53,20,17,17,17,17,17,17,17,17,
0,0,22,85,17,1610612837,120,2684354678,17,17,17,17,17,17,17,17,
0,0,22,85,85,18,53,20,17,17,17,17,17,17,17,17,
0,0,22,17,85,1610612854,120,2684354678,17,17,2,3,4,17,85,17,
0,0,22,17,17,18,53,20,17,17,18,53,20,85,85,17,
7,7,23,17,17,1610612854,120,2684354678,17,85,1610612854,120,3758096502,85,17,17,
17,17,150,17,17,18,53,20,17,17,18,53,20,17,17,17,
17,17,150,17,17,1610612854,120,2684354678,17,17,1610612854,120,3758096502,17,17,17
</chunk>
   <chunk x="48" y="-32" width="16" height="16">
0,0,0,0,0,0,0,0,0,0,0,0,0,0,0,0,
0,0,0,0,0,0,0,0,0,0,0,0,0,0,0,0,
0,0,0,0,0,0,0,0,0,0,0,0,0,0,0,0,
0,0,0,0,0,0,0,0,0,0,0,0,0,0,0,0,
0,0,0,0,0,0,0,0,0,0,0,0,0,0,0,0,
0,0,0,0,0,0,0,0,0,0,0,0,0,0,0,0,
7,7,7,7,7,7,7,7,7,7,7,7,7,8,0,0,
17,85,85,17,17,17,17,17,1610612854,120,2684354677,17,17,24,0,0,
17,17,85,17,17,17,17,17,18,53,20,17,17,24,0,0,
17,17,17,17,17,17,17,17,1610612854,120,2684354678,17,17,24,0,0,
17,2,3,4,17,17,17,17,18,53,20,17,17,24,0,0,
17,18,53,20,17,17,17,17,1610612854,120,2684354678,17,17,24,0,0,
17,1610612854,120,2684354678,17,17,17,17,18,53,20,17,17,23,7,7,
17,18,53,20,17,17,17,17,1610612854,120,2684354678,17,17,150,17,17,
17,1610612854,120,2684354678,17,17,17,17,18,53,20,17,17,150,17,17,
17,18,53,20,17,17,17,17,1610612854,120,2684354678,17,17,23,39,39
</chunk>
   <chunk x="64" y="-32" width="16" height="16">
0,0,0,0,0,0,0,0,0,0,0,0,0,0,0,0,
0,0,0,0,0,0,0,0,0,0,0,0,0,0,0,0,
0,0,0,0,0,0,0,0,0,0,0,0,0,0,0,0,
0,0,0,0,0,0,0,0,0,0,0,0,0,0,0,0,
0,0,0,0,0,0,0,0,0,0,0,0,0,0,0,0,
0,0,0,0,0,0,0,0,0,0,0,0,0,0,0,0,
0,0,0,0,0,0,0,0,0,0,0,0,0,0,0,0,
0,0,0,0,0,0,0,0,0,0,0,0,0,0,0,0,
0,0,0,0,0,0,0,0,0,0,0,0,0,0,0,0,
0,0,0,0,0,0,0,0,0,0,0,0,0,0,0,0,
0,0,0,0,0,0,0,0,0,0,0,0,0,0,0,0,
0,0,0,0,0,0,0,0,0,0,0,0,0,0,0,0,
7,7,7,7,7,7,7,8,0,0,0,0,0,0,0,0,
17,17,17,17,17,17,17,24,0,0,0,0,0,0,0,0,
17,17,17,17,17,17,17,24,0,0,0,0,0,0,0,0,
39,39,39,39,23,17,17,24,0,0,0,0,0,0,0,0
</chunk>
   <chunk x="0" y="-16" width="16" height="16">
0,0,0,0,0,0,0,6,7,7,7,7,7,7,150,7,
0,0,0,0,0,0,0,22,17,17,17,17,17,17,17,17,
0,0,0,0,0,0,0,22,17,17,17,17,17,17,17,17,
0,0,0,0,0,0,0,22,17,17,6,7,7,7,7,7,
0,0,0,0,0,0,0,22,17,17,22,161,161,161,161,161,
0,0,6,7,7,7,7,23,17,17,22,161,161,213,161,161,
0,0,22,17,17,17,17,17,17,17,2147483659,161,161,213,213,257,
0,0,22,17,17,17,17,17,17,17,2147483675,161,161,161,161,289,
0,0,22,17,23,39,39,23,17,17,22,161,161,161,161,161,
0,0,22,17,24,0,0,22,17,17,22,161,161,216,161,161,
0,0,22,17,24,0,0,22,17,17,38,39,39,39,39,39,
0,0,22,17,24,0,0,22,17,17,17,17,17,17,17,17,
0,0,22,17,24,0,0,22,17,17,17,17,17,17,17,17,
0,0,22,17,24,0,0,38,39,39,39,39,39,23,17,17,
0,0,22,17,24,0,0,0,0,0,0,0,0,22,17,17,
6,7,23,150,23,7,7,7,7,7,7,8,0,22,17,17
</chunk>
   <chunk x="16" y="-16" width="16" height="16">
7,7,7,7,7,7,7,7,8,0,22,17,17,23,39,39,
17,17,17,17,17,17,17,17,24,0,22,17,17,24,0,0,
17,17,17,17,17,17,17,17,24,0,22,17,17,24,0,0,
7,7,7,7,7,8,17,17,24,0,22,17,17,24,0,0,
161,161,161,213,161,24,17,17,24,0,22,17,17,24,0,0,
161,161,161,161,213,24,17,17,24,0,22,17,17,24,0,0,
258,259,161,161,161,11,17,17,24,0,22,17,17,24,0,0,
290,291,161,161,161,27,17,17,24,0,22,17,17,24,0,0,
161,161,161,213,161,24,17,17,24,0,22,17,17,24,0,0,
161,161,161,213,213,24,17,17,24,0,22,17,17,24,0,0,
39,39,39,39,39,40,17,17,24,0,22,17,17,24,0,0,
17,17,17,17,17,17,17,17,24,0,22,17,17,24,0,0,
17,17,17,17,17,17,17,17,24,0,22,17,17,24,0,0,
23,39,39,39,39,23,17,17,24,0,22,17,17,24,0,0,
24,161,213,229,229,22,17,17,24,0,22,17,17,24,0,0,
11,161,161,213,245,2147483659,17,17,24,0,22,17,17,24,0,0
</chunk>
   <chunk x="32" y="-16" width="16" height="16">
39,39,23,17,17,18,53,20,17,17,18,53,20,17,17,17,
0,0,22,17,17,1610612854,120,2684354678,17,17,1610612854,120,3758096502,17,17,17,
0,0,22,17,17,18,19,20,17,17,18,53,20,17,17,17,
0,0,22,17,17,17,17,17,17,17,1610612854,120,3758096502,17,17,17,
0,0,22,17,17,17,17,17,17,17,18,53,20,17,17,17,
0,0,22,17,17,17,17,17,17,17,1610612854,120,3758096502,17,17,17,
0,0,38,39,39,39,39,39,39,39,39,39,39,23,17,17,
0,0,0,0,0,0,0,0,0,0,0,0,0,22,17,17,
0,0,0,0,0,0,0,0,0,0,0,0,0,22,17,17,
0,0,0,0,0,0,0,0,0,0,0,0,0,22,17,17,
0,0,0,0,0,0,0,0,0,0,0,0,0,22,17,17,
0,0,0,0,0,0,0,0,0,0,0,0,0,22,17,17,
0,0,0,0,0,0,0,0,0,0,0,6,7,23,149,149,
0,0,0,0,0,0,0,0,0,6,7,23,76,76,76,76,
0,0,0,0,0,0,0,6,7,23,1073741843,1073741827,76,76,76,76,
0,0,0,0,0,0,6,23,1073741827,1073741827,1073741828,76,76,76,76,76
</chunk>
   <chunk x="48" y="-16" width="16" height="16">
17,1610612854,120,2684354678,17,17,17,17,18,53,20,17,17,24,0,0,
17,18,53,20,17,17,17,17,1610612854,120,2684354678,17,17,24,0,0,
17,1610612854,120,2684354678,17,17,17,17,18,19,20,17,17,24,0,0,
17,18,19,20,85,85,17,17,17,17,17,17,17,24,0,0,
17,17,17,17,17,85,17,17,17,17,17,17,85,24,0,0,
17,17,17,17,85,17,85,17,17,17,17,85,85,24,0,0,
23,39,39,39,39,39,39,39,39,39,39,39,39,40,0,0,
24,0,0,0,0,0,0,0,0,0,0,0,0,0,0,0,
24,0,0,0,0,0,0,0,0,0,0,0,0,0,0,0,
24,0,0,0,0,0,0,0,0,0,0,0,0,0,0,0,
24,0,0,0,0,0,0,0,0,0,0,0,0,0,0,0,
24,0,0,0,0,0,0,0,0,0,0,0,0,0,0,0,
23,7,73,0,0,0,0,0,0,0,0,0,0,0,0,0,
76,76,90,8,0,0,0,0,0,0,0,0,0,0,0,0,
76,76,76,23,8,0,0,0,0,0,0,0,0,0,0,0,
76,76,76,76,23,8,0,0,0,0,0,0,0,0,0,0
</chunk>
   <chunk x="64" y="-16" width="16" height="16">
0,0,0,0,22,17,17,24,0,0,0,0,0,0,0,0,
0,0,0,0,22,17,17,24,0,0,0,0,0,0,0,0,
0,0,0,0,22,17,17,24,0,0,0,0,0,0,0,0,
0,0,0,0,22,17,17,24,0,0,0,0,0,0,0,0,
0,0,0,0,22,17,17,24,0,0,0,0,0,0,0,0,
0,0,0,0,22,17,17,24,0,0,0,0,0,0,0,0,
0,0,0,0,22,17,17,24,0,0,0,0,0,0,0,0,
0,0,0,0,22,17,17,24,0,0,0,0,0,0,0,0,
0,0,0,0,22,17,17,24,0,0,0,0,0,0,0,0,
0,0,0,0,22,17,17,24,0,0,0,0,0,0,0,0,
0,0,0,0,22,17,17,24,0,0,0,0,0,0,0,0,
0,0,6,7,23,17,17,23,7,7,7,7,7,7,7,7,
0,0,22,17,17,17,17,17,17,17,17,17,17,17,17,17,
0,0,22,17,17,17,17,17,17,17,17,17,17,17,17,17,
0,0,22,17,17,23,39,39,39,39,39,39,39,39,39,39,
0,0,22,17,17,24,0,0,0,0,0,0,0,0,0,0
</chunk>
   <chunk x="80" y="-16" width="16" height="16">
0,0,0,0,0,0,0,0,0,0,0,0,0,0,0,0,
0,0,0,0,0,0,0,0,0,0,0,0,0,0,0,0,
0,0,0,0,0,0,0,0,0,0,0,0,0,0,0,0,
0,0,0,0,0,0,0,0,0,0,0,0,0,0,0,0,
0,0,0,0,0,0,0,0,0,0,0,0,0,0,0,0,
0,0,0,0,0,0,0,0,0,0,0,0,0,0,0,0,
0,0,0,0,0,0,0,0,0,0,0,0,0,0,0,0,
0,0,0,0,0,0,0,0,0,0,0,0,0,0,0,0,
0,0,0,0,0,0,0,0,0,0,0,0,0,0,0,0,
0,0,0,0,0,0,0,0,0,0,0,0,0,0,0,0,
0,0,0,0,0,0,0,0,0,0,0,0,0,0,0,0,
7,7,7,0,0,0,0,0,0,0,0,0,0,0,0,0,
17,17,134,0,0,0,0,0,0,0,0,0,0,0,0,0,
17,17,134,0,0,0,0,0,0,0,0,0,0,0,0,0,
39,39,39,0,0,0,0,0,0,0,0,0,0,0,0,0,
0,0,0,0,0,0,0,0,0,0,0,0,0,0,0,0
</chunk>
   <chunk x="0" y="0" width="16" height="16">
22,1610612850,19,17,17,19,17,19,119,17,119,24,0,22,17,17,
22,19,19,17,19,19,17,19,17,17,119,24,0,22,17,17,
22,19,17,17,19,17,17,17,17,17,17,24,0,22,17,17,
22,19,17,17,17,17,17,17,17,17,17,24,0,22,17,17,
22,19,17,17,19,17,17,19,17,17,17,1610612895,0,22,17,17,
22,19,17,17,19,17,17,19,17,17,30,1610612895,0,22,17,17,
38,19,17,17,19,17,17,19,17,17,17,1610612895,0,22,17,17,
22,19,17,17,17,17,17,17,17,17,17,23,7,23,17,17,
22,19,17,17,19,17,17,19,17,17,17,150,17,17,17,17,
22,19,19,17,19,19,17,19,17,17,17,23,39,23,17,17,
22,1610612850,19,17,17,19,17,17,17,17,17,24,0,22,17,17,
38,1610612741,1610612757,1610612757,1610612757,1610612757,1610612757,1610612757,1610612757,17,17,24,0,22,17,17,
22,119,119,17,17,17,17,17,17,17,17,24,0,22,17,17,
22,119,17,17,17,17,17,17,17,17,17,24,0,22,17,17,
38,23,150,23,39,39,39,39,39,39,39,40,0,22,17,17,
0,22,17,24,0,0,0,0,0,0,0,0,0,22,17,17
</chunk>
   <chunk x="16" y="0" width="16" height="16">
27,161,161,161,245,2147483675,17,17,24,0,22,17,17,24,0,0,
24,161,177,161,261,22,17,17,24,0,22,17,17,24,0,0,
24,161,161,161,161,22,17,17,24,0,22,17,17,24,0,0,
11,216,161,161,161,2147483659,17,17,24,0,22,17,17,24,0,0,
27,161,161,161,161,2147483675,17,17,24,0,22,17,17,24,0,0,
24,177,177,161,161,22,17,17,23,7,39,17,17,39,7,7,
24,161,161,177,161,22,17,17,17,17,17,17,17,17,17,17,
11,161,161,161,161,2147483659,17,17,17,17,17,17,17,17,17,17,
27,161,161,161,161,2147483675,17,17,23,39,39,39,39,39,39,39,
24,161,161,161,177,22,17,17,24,0,0,0,0,0,0,0,
24,161,177,161,216,22,17,17,24,0,0,0,0,0,0,0,
11,161,161,177,161,2147483659,17,17,24,0,0,0,0,0,0,0,
27,161,161,161,161,2147483675,17,17,24,0,0,0,0,0,0,0,
24,161,161,161,161,22,17,17,24,0,0,0,0,0,0,0,
24,206,161,161,161,22,17,17,24,0,0,0,0,0,0,0,
11,222,161,161,161,2147483659,17,17,24,0,0,0,0,0,0,0
</chunk>
   <chunk x="32" y="0" width="16" height="16">
0,0,0,0,0,6,23,138,76,76,76,76,76,76,76,76,
0,0,0,0,6,23,76,154,76,76,76,16,16,76,76,76,
0,0,0,6,23,85,76,76,76,76,76,32,128,76,76,76,
0,0,6,23,85,85,76,76,76,76,76,2147483776,32,76,76,76,
0,6,23,85,85,85,76,76,76,76,76,47,48,76,76,76,
7,23,76,76,76,76,76,76,76,76,76,76,76,76,76,76,
17,150,76,76,76,76,76,76,76,76,76,76,76,76,76,76,
17,150,76,76,76,76,76,76,76,76,76,76,76,76,76,76,
39,23,76,76,76,76,16,16,76,76,76,76,76,76,16,16,
0,38,23,76,76,76,32,128,76,76,76,76,76,76,32,128,
0,0,22,76,76,76,2147483776,32,76,76,76,76,76,76,2147483776,32,
0,0,38,23,76,76,47,48,76,76,76,76,76,76,47,48,
0,0,0,38,23,76,76,76,76,76,76,76,76,76,76,76,
0,0,0,0,38,23,76,76,76,76,76,76,76,76,76,76,
0,0,0,0,0,38,39,23,76,76,76,76,76,76,76,76,
0,0,0,0,0,0,0,38,23,76,76,76,76,76,76,76
</chunk>
   <chunk x="48" y="0" width="16" height="16">
76,76,76,76,76,23,8,0,0,0,0,0,0,0,0,0,
76,16,16,76,76,76,24,0,0,0,0,0,0,0,0,0,
76,32,128,76,76,76,24,0,0,0,0,0,0,0,0,0,
76,2147483776,32,76,76,101,23,8,0,0,0,0,0,0,0,0,
76,47,48,76,76,85,101,23,8,0,0,0,0,0,0,0,
76,76,76,76,76,76,85,101,24,0,0,0,0,0,0,0,
76,76,76,76,76,76,76,76,23,8,0,0,0,0,0,0,
76,76,76,76,76,76,76,76,76,23,7,7,7,7,7,7,
76,76,76,76,76,76,76,76,76,149,17,17,17,17,17,17,
76,76,76,16,16,76,76,76,76,149,17,17,17,17,17,17,
76,76,76,32,128,76,76,76,76,23,39,39,39,23,17,17,
76,76,76,2147483776,32,76,76,76,76,24,0,0,0,22,17,17,
76,76,76,47,48,76,76,76,23,40,0,0,0,22,17,17,
76,76,76,76,76,76,76,23,40,0,0,0,0,22,17,17,
76,76,76,76,76,76,23,40,0,0,0,0,0,22,17,17,
76,76,76,76,76,23,40,0,0,0,0,0,0,22,17,17
</chunk>
   <chunk x="64" y="0" width="16" height="16">
0,0,22,17,17,24,0,0,0,0,0,0,0,0,0,0,
0,0,22,17,17,24,0,0,0,0,0,0,0,0,0,0,
0,0,22,17,17,24,0,0,0,0,0,0,0,0,0,0,
0,0,22,17,17,24,0,0,0,0,0,0,0,0,0,0,
0,0,22,17,17,24,0,0,0,0,0,0,0,0,0,0,
0,0,22,17,17,24,0,0,0,0,0,0,0,0,0,0,
0,0,22,17,17,24,0,0,0,0,0,0,0,0,0,0,
7,7,23,17,17,24,0,0,0,0,0,0,0,0,0,0,
17,17,17,17,17,24,0,0,0,0,0,0,0,0,0,0,
17,17,17,17,17,24,0,0,0,0,0,0,0,0,0,0,
17,23,39,39,39,40,0,0,0,0,0,0,0,0,0,0,
17,24,0,0,0,0,0,0,0,0,0,0,0,0,0,0,
17,24,0,0,0,0,0,0,0,0,0,0,0,0,0,0,
17,24,0,0,0,0,0,0,0,0,0,0,0,0,0,0,
17,24,0,0,0,0,0,0,0,0,0,0,0,0,0,0,
17,24,0,0,0,0,0,0,0,0,0,0,0,0,0,0
</chunk>
   <chunk x="-16" y="16" width="16" height="16">
0,0,0,0,0,0,0,0,0,0,0,0,0,0,0,0,
0,0,0,0,0,0,0,0,0,0,0,0,0,6,7,7,
0,0,0,0,0,0,0,0,0,0,0,0,0,22,17,17,
0,0,0,0,0,0,0,0,0,0,0,0,0,22,17,17,
0,0,0,0,0,0,0,0,0,0,0,0,0,38,39,39,
0,0,0,0,0,0,0,0,0,0,0,0,0,0,0,0,
0,0,0,0,0,0,0,0,0,0,0,0,0,6,7,7,
0,0,0,0,0,0,0,0,0,0,0,0,0,22,17,17,
0,0,0,0,0,0,0,0,0,0,0,0,0,22,17,17,
0,0,0,0,0,0,0,0,0,0,0,0,0,22,17,17,
0,0,0,0,0,0,0,0,0,0,0,0,0,22,17,17,
0,0,0,0,0,0,0,0,0,0,0,0,0,22,17,17,
0,0,0,0,0,0,0,0,0,0,0,0,0,22,17,17,
0,0,0,0,0,0,0,0,0,0,0,0,0,22,17,17,
0,0,0,0,0,0,0,0,0,0,0,0,0,22,17,17,
0,0,0,0,0,0,0,0,0,0,0,0,0,22,17,17
</chunk>
   <chunk x="0" y="16" width="16" height="16">
0,22,17,24,0,0,0,0,0,0,0,0,0,22,17,17,
7,23,17,23,7,7,7,7,7,7,7,7,7,23,17,17,
17,17,17,17,17,17,17,17,17,17,17,17,17,17,17,17,
17,17,17,17,17,17,17,17,17,17,17,17,17,17,17,17,
39,23,150,23,39,39,39,39,39,39,39,39,39,39,39,39,
0,22,17,24,274,274,274,274,274,274,274,274,274,274,274,274,
7,23,17,23,7,159,159,159,7,7,7,7,7,7,159,159,
17,17,17,17,17,17,17,17,17,17,17,17,17,17,17,17,
17,17,17,17,17,17,17,17,17,17,17,17,17,17,17,17,
2,3,4,17,17,2,3,4,17,17,2,3,4,17,17,2,
1610612854,53,2684354678,17,17,1610612854,53,2684354678,17,17,1610612854,53,2684354678,17,17,1610612854,
18,53,20,17,17,18,53,20,17,17,18,53,20,17,17,18,
1610612854,53,2684354678,17,17,1610612854,53,2684354678,17,17,1610612854,53,2684354678,17,17,1610612854,
18,53,20,17,17,18,53,20,17,17,18,53,20,17,17,18,
1610612854,53,2684354678,17,17,1610612854,53,2684354678,17,17,1610612854,53,2684354678,17,17,1610612854,
18,53,20,17,17,18,53,20,17,17,18,53,20,17,17,18
</chunk>
   <chunk x="16" y="16" width="16" height="16">
27,209,241,241,210,2147483675,17,17,24,0,0,0,0,0,0,0,
24,242,242,242,242,22,17,17,24,0,0,0,0,0,0,0,
24,242,242,242,242,22,17,17,24,0,0,0,0,0,0,0,
24,265,265,265,265,22,17,17,24,0,0,0,0,0,0,0,
40,281,282,282,283,22,17,17,24,0,0,0,0,0,0,0,
274,274,274,274,274,22,17,17,24,0,0,0,0,0,0,0,
159,7,7,7,8,22,17,17,24,0,0,0,0,0,0,0,
17,17,17,17,24,22,17,17,23,7,7,7,7,7,7,7,
17,17,17,17,149,17,17,17,17,17,17,17,17,17,17,17,
3,4,17,17,149,17,17,17,17,17,17,17,17,17,17,17,
53,2684354678,17,17,24,38,39,39,39,39,39,39,39,39,39,39,
53,20,17,17,24,0,0,0,0,0,0,0,0,0,0,0,
53,2684354678,17,17,24,0,0,0,0,0,0,0,0,0,0,0,
53,20,17,17,24,0,0,0,0,0,0,0,0,0,0,0,
53,2684354678,17,17,24,0,0,0,0,0,0,0,0,0,0,0,
53,20,17,17,24,0,0,0,0,0,0,0,0,0,0,0
</chunk>
   <chunk x="32" y="16" width="16" height="16">
0,0,0,0,0,0,0,0,38,23,2147483779,76,76,76,76,76,
0,0,0,0,0,0,0,0,0,38,39,23,76,76,76,76,
0,0,0,0,0,0,0,0,0,0,0,38,39,23,149,149,
0,0,0,0,0,0,0,0,0,0,0,0,0,22,17,17,
0,0,0,0,0,0,0,0,0,0,0,0,0,22,17,17,
0,0,0,0,0,0,0,0,0,0,0,0,0,22,17,17,
0,0,0,0,0,0,0,0,0,0,0,0,0,22,17,17,
7,7,7,7,7,7,7,7,7,7,7,7,7,23,17,17,
17,17,17,17,17,17,17,17,17,17,17,17,17,17,17,17,
17,17,17,17,17,17,17,17,17,17,17,17,17,17,17,17,
39,39,39,39,39,39,39,39,39,39,39,39,39,39,39,39,
0,0,0,0,0,0,0,0,0,0,0,0,0,0,0,0,
0,0,0,0,0,0,0,0,0,0,0,0,0,0,0,0,
0,0,0,0,0,0,0,0,0,0,0,0,0,0,0,0,
0,0,0,0,0,0,0,0,0,0,0,0,0,0,0,0,
0,0,0,0,0,0,0,0,0,0,0,0,0,0,0,0
</chunk>
   <chunk x="48" y="16" width="16" height="16">
76,76,76,131,23,40,0,0,0,0,0,0,0,22,17,17,
76,76,23,39,40,0,0,0,0,0,0,0,0,22,17,17,
39,39,40,0,0,0,0,0,0,0,0,0,0,22,17,17,
24,0,0,0,0,0,0,0,0,0,0,0,0,22,17,17,
24,0,0,0,0,0,0,0,0,0,0,0,0,22,17,17,
24,0,0,0,0,0,0,0,0,0,0,0,0,22,17,17,
24,0,0,0,0,0,0,0,0,0,0,0,0,22,17,17,
39,7,7,7,7,7,7,7,7,7,7,7,7,23,17,17,
17,17,17,17,149,17,17,17,17,17,17,17,17,17,17,17,
17,17,17,17,149,17,17,17,17,17,17,17,17,17,17,17,
39,39,39,39,39,39,39,39,39,39,39,39,39,39,39,39,
0,0,0,0,0,0,0,0,0,0,0,0,0,0,0,0,
0,0,0,0,0,0,0,0,0,0,0,0,0,0,0,0,
0,0,0,0,0,0,0,0,0,0,0,0,0,0,0,0,
0,0,0,0,0,0,0,0,0,0,0,0,0,0,0,0,
0,0,0,0,0,0,0,0,0,0,0,0,0,0,0,0
</chunk>
   <chunk x="64" y="16" width="16" height="16">
17,24,0,0,0,0,0,0,0,0,0,0,0,0,0,0,
17,24,0,0,0,0,0,0,0,0,0,0,0,0,0,0,
17,24,0,0,0,0,0,0,0,0,0,0,0,0,0,0,
17,24,0,0,0,0,0,0,0,0,0,0,0,0,0,0,
17,24,0,0,0,0,0,0,0,0,0,0,0,0,0,0,
17,24,0,0,0,0,0,0,0,0,0,0,0,0,0,0,
17,24,0,0,0,0,0,0,0,0,0,0,0,0,0,0,
17,24,0,0,0,0,0,0,0,0,0,0,0,0,0,0,
17,24,0,0,0,0,0,0,0,0,0,0,0,0,0,0,
17,24,0,0,0,0,0,0,0,0,0,0,0,0,0,0,
39,40,0,0,0,0,0,0,0,0,0,0,0,0,0,0,
0,0,0,0,0,0,0,0,0,0,0,0,0,0,0,0,
0,0,0,0,0,0,0,0,0,0,0,0,0,0,0,0,
0,0,0,0,0,0,0,0,0,0,0,0,0,0,0,0,
0,0,0,0,0,0,0,0,0,0,0,0,0,0,0,0,
0,0,0,0,0,0,0,0,0,0,0,0,0,0,0,0
</chunk>
   <chunk x="-16" y="32" width="16" height="16">
0,0,0,0,0,0,0,0,0,0,0,0,0,22,17,17,
0,0,0,0,0,0,0,0,0,0,0,0,0,38,39,39,
0,0,0,0,0,0,0,0,0,0,0,0,0,0,0,0,
0,0,0,0,0,0,0,0,0,0,0,0,0,0,0,0,
0,0,0,0,0,0,0,0,0,0,0,0,0,0,0,0,
0,0,0,0,0,0,0,0,0,0,0,0,0,0,0,0,
0,0,0,0,0,0,0,0,0,0,0,0,0,0,0,0,
0,0,0,0,0,0,0,0,0,0,0,0,0,0,0,0,
0,0,0,0,0,0,0,0,0,0,0,0,0,0,0,0,
0,0,0,0,0,0,0,0,0,0,0,0,0,0,0,0,
0,0,0,0,0,0,0,0,0,0,0,0,0,0,0,0,
0,0,0,0,0,0,0,0,0,0,0,0,0,0,0,0,
0,0,0,0,0,0,0,0,0,0,0,0,0,0,0,0,
0,0,0,0,0,0,0,0,0,0,0,0,0,0,0,0,
0,0,0,0,0,0,0,0,0,0,0,0,0,0,0,0,
0,0,0,0,0,0,0,0,0,0,0,0,0,0,0,0
</chunk>
   <chunk x="0" y="32" width="16" height="16">
1610612854,53,2684354678,17,17,1610612854,53,2684354678,17,17,1610612854,53,2684354678,17,17,1610612854,
39,39,39,39,39,39,39,39,39,39,39,39,39,39,39,39,
0,0,0,0,0,0,0,0,0,0,0,0,0,0,0,0,
0,0,0,0,0,0,0,0,0,0,0,0,0,0,0,0,
0,0,0,0,0,0,0,0,0,0,0,0,0,0,0,0,
0,0,0,0,0,0,0,0,0,0,0,0,0,0,0,0,
0,0,0,0,0,0,0,0,0,0,0,0,0,0,0,0,
0,0,0,0,0,0,0,0,0,0,0,0,0,0,0,0,
0,0,0,0,0,0,0,0,0,0,0,0,0,0,0,0,
0,0,0,0,0,0,0,0,0,0,0,0,0,0,0,0,
0,0,0,0,0,0,0,0,0,0,0,0,0,0,0,0,
0,0,0,0,0,0,0,0,0,0,0,0,0,0,0,0,
0,0,0,0,0,0,0,0,0,0,0,0,0,0,0,0,
0,0,0,0,0,0,0,0,0,0,0,0,0,0,0,0,
0,0,0,0,0,0,0,0,0,0,0,0,0,0,0,0,
0,0,0,0,0,0,0,0,0,0,0,0,0,0,0,0
</chunk>
   <chunk x="16" y="32" width="16" height="16">
53,2684354678,17,17,24,0,0,0,0,0,0,0,0,0,0,0,
39,39,39,39,40,0,0,0,0,0,0,0,0,0,0,0,
0,0,0,0,0,0,0,0,0,0,0,0,0,0,0,0,
0,0,0,0,0,0,0,0,0,0,0,0,0,0,0,0,
0,0,0,0,0,0,0,0,0,0,0,0,0,0,0,0,
0,0,0,0,0,0,0,0,0,0,0,0,0,0,0,0,
0,0,0,0,0,0,0,0,0,0,0,0,0,0,0,0,
0,0,0,0,0,0,0,0,0,0,0,0,0,0,0,0,
0,0,0,0,0,0,0,0,0,0,0,0,0,0,0,0,
0,0,0,0,0,0,0,0,0,0,0,0,0,0,0,0,
0,0,0,0,0,0,0,0,0,0,0,0,0,0,0,0,
0,0,0,0,0,0,0,0,0,0,0,0,0,0,0,0,
0,0,0,0,0,0,0,0,0,0,0,0,0,0,0,0,
0,0,0,0,0,0,0,0,0,0,0,0,0,0,0,0,
0,0,0,0,0,0,0,0,0,0,0,0,0,0,0,0,
0,0,0,0,0,0,0,0,0,0,0,0,0,0,0,0
</chunk>
  </data>
 </layer>
</map>
