<?xml version="1.0" encoding="UTF-8"?>
<map version="1.10" tiledversion="1.11.2" orientation="orthogonal" renderorder="right-down" width="100" height="60" tilewidth="20" tileheight="20" infinite="0" nextlayerid="8" nextobjectid="215">
 <tileset firstgid="1" source="inside_tileset.tsx"/>
 <tileset firstgid="161" source="Outside_tileset.tsx"/>
 <layer id="1" name="Map" width="100" height="60">
  <data encoding="csv">
0,0,0,0,0,0,0,0,0,0,0,0,0,0,0,0,0,0,0,0,0,0,0,0,0,0,0,0,0,0,0,0,0,0,0,0,0,6,7,7,7,7,7,7,7,7,7,7,7,7,7,7,7,7,7,7,7,7,7,7,7,7,7,7,8,0,0,0,0,0,0,0,0,0,0,0,0,0,0,0,0,0,0,0,0,0,0,0,0,0,0,0,0,0,0,0,0,0,0,0,
0,0,0,0,0,0,0,0,0,0,0,0,0,0,0,0,0,0,0,0,0,0,0,0,0,0,0,0,0,0,0,0,0,0,0,0,0,22,85,85,1610612854,120,2684354678,17,17,17,17,17,17,17,17,17,85,85,17,17,17,17,17,1610612854,120,2684354677,17,17,24,0,0,0,0,0,0,0,0,0,0,0,0,0,0,0,0,0,0,0,0,0,0,0,0,0,0,0,0,0,0,0,0,0,0,0,
0,0,0,0,0,0,0,0,0,0,0,0,0,0,0,0,0,0,0,0,0,0,0,0,0,0,0,0,0,0,0,0,0,0,0,0,0,22,85,85,18,53,20,17,17,17,17,17,17,17,17,17,17,85,17,17,17,17,17,18,53,20,17,17,24,0,0,0,0,0,0,0,0,0,0,0,0,0,0,0,0,0,0,0,0,0,0,0,0,0,0,0,0,0,0,0,0,0,0,0,
0,0,0,0,0,0,0,0,0,0,0,0,0,0,0,0,0,0,0,0,0,0,0,0,0,0,0,0,0,0,0,0,0,0,0,0,0,22,85,17,1610612837,120,2684354678,17,17,17,17,17,17,17,17,17,17,17,17,17,17,17,17,1610612854,120,2684354678,17,17,24,0,0,0,0,0,0,0,0,0,0,0,0,0,0,0,0,0,0,0,0,0,0,0,0,0,0,0,0,0,0,0,0,0,0,0,
0,0,0,0,0,0,0,0,0,0,0,0,0,0,0,0,6,7,7,7,7,7,7,7,7,7,7,7,7,7,7,7,8,0,0,0,0,22,85,85,18,53,20,17,17,17,17,17,17,17,17,17,2,3,4,17,17,17,17,18,53,20,17,17,24,0,0,0,0,0,0,0,0,0,0,0,0,0,0,0,0,0,0,0,0,0,0,0,0,0,0,0,0,0,0,0,0,0,0,0,
0,0,0,0,0,0,0,0,0,0,0,0,0,0,0,0,22,17,17,17,17,17,17,17,17,17,17,17,17,17,17,17,24,0,0,0,0,22,17,85,1610612854,120,2684354678,17,17,2,3,4,17,85,17,17,18,53,20,17,17,17,17,1610612854,120,2684354678,17,17,24,0,0,0,0,0,0,0,0,0,0,0,0,0,0,0,0,0,0,0,0,0,0,0,0,0,0,0,0,0,0,0,0,0,0,0,
0,0,0,0,0,0,0,0,0,0,0,0,0,0,0,0,22,17,17,17,17,17,17,17,17,17,17,17,17,17,17,17,24,0,0,0,0,22,17,17,18,53,20,17,17,18,53,20,85,85,17,17,1610612854,120,2684354678,17,17,17,17,18,53,20,17,17,23,7,7,7,7,7,7,7,7,7,8,0,0,0,0,0,0,0,0,0,0,0,0,0,0,0,0,0,0,0,0,0,0,0,0,0,
0,0,0,0,0,0,0,0,0,0,0,0,0,0,0,0,22,17,23,39,39,39,39,39,39,39,39,39,39,23,17,17,23,7,7,7,7,23,17,17,1610612854,120,2684354678,17,85,1610612854,120,3758096502,85,17,17,17,18,53,20,17,17,17,17,1610612854,120,2684354678,17,17,150,17,17,17,17,17,17,17,17,17,24,0,0,0,0,0,0,0,0,0,0,0,0,0,0,0,0,0,0,0,0,0,0,0,0,0,
0,0,0,0,0,0,0,0,0,0,0,0,0,0,0,0,22,17,24,0,0,0,0,0,0,0,0,0,0,22,17,17,17,17,17,17,17,150,17,17,18,53,20,17,17,18,53,20,17,17,17,17,1610612854,120,2684354678,17,17,17,17,18,53,20,17,17,150,17,17,17,17,17,17,17,17,17,24,0,0,0,0,0,0,0,0,0,0,0,0,0,0,0,0,0,0,0,0,0,0,0,0,0,
0,0,0,0,0,0,0,0,0,0,0,0,0,0,0,0,22,17,24,0,0,0,0,0,0,0,0,0,0,22,17,17,17,17,17,17,17,150,17,17,1610612854,120,2684354678,17,17,1610612854,120,3758096502,17,17,17,17,18,53,20,17,17,17,17,1610612854,120,2684354678,17,17,23,39,39,39,39,39,39,23,17,17,24,0,0,0,0,0,0,0,0,0,0,0,0,0,0,0,0,0,0,0,0,0,0,0,0,0,
0,0,0,0,0,0,0,0,0,0,6,7,7,7,7,7,7,150,7,7,7,7,7,7,7,7,7,8,0,22,17,17,23,39,39,39,39,23,17,17,18,53,20,17,17,18,53,20,17,17,17,17,1610612854,120,2684354678,17,17,17,17,18,53,20,17,17,24,0,0,0,0,0,0,22,17,17,24,0,0,0,0,0,0,0,0,0,0,0,0,0,0,0,0,0,0,0,0,0,0,0,0,0,
0,0,0,0,0,0,0,0,0,0,22,17,17,17,17,17,17,17,17,17,17,17,17,17,17,17,17,24,0,22,17,17,24,0,0,0,0,22,17,17,1610612854,120,2684354678,17,17,1610612854,120,3758096502,17,17,17,17,18,53,20,17,17,17,17,1610612854,120,2684354678,17,17,24,0,0,0,0,0,0,22,17,17,24,0,0,0,0,0,0,0,0,0,0,0,0,0,0,0,0,0,0,0,0,0,0,0,0,0,
0,0,0,0,0,0,0,0,0,0,22,17,17,17,17,17,17,17,17,17,17,17,17,17,17,17,17,24,0,22,17,17,24,0,0,0,0,22,17,17,18,19,20,17,17,18,53,20,17,17,17,17,1610612854,120,2684354678,17,17,17,17,18,19,20,17,17,24,0,0,0,0,0,0,22,17,17,24,0,0,0,0,0,0,0,0,0,0,0,0,0,0,0,0,0,0,0,0,0,0,0,0,0,
0,0,0,0,0,0,0,0,0,0,22,17,17,6,7,7,7,7,7,7,7,7,7,7,8,17,17,24,0,22,17,17,24,0,0,0,0,22,17,17,17,17,17,17,17,1610612854,120,3758096502,17,17,17,17,18,19,20,85,85,17,17,17,17,17,17,17,24,0,0,0,0,0,0,22,17,17,24,0,0,0,0,0,0,0,0,0,0,0,0,0,0,0,0,0,0,0,0,0,0,0,0,0,
0,0,0,0,0,0,0,0,0,0,22,17,17,22,161,161,161,161,161,161,161,161,213,161,24,17,17,24,0,22,17,17,24,0,0,0,0,22,17,17,17,17,17,17,17,18,53,20,17,17,17,17,17,17,17,17,85,17,17,17,17,17,17,85,24,0,0,0,0,0,0,22,17,17,24,0,0,0,0,0,0,0,0,0,0,0,0,0,0,0,0,0,0,0,0,0,0,0,0,0,
0,0,0,0,0,6,7,7,7,7,23,17,17,22,161,161,213,161,161,161,161,161,161,213,24,17,17,24,0,22,17,17,24,0,0,0,0,22,17,17,17,17,17,17,17,1610612854,120,3758096502,17,17,17,17,17,17,17,85,17,85,17,17,17,17,85,85,24,0,0,0,0,0,0,22,17,17,24,0,0,0,0,0,0,0,0,0,0,0,0,0,0,0,0,0,0,0,0,0,0,0,0,0,
0,0,0,0,0,22,17,17,17,17,17,17,17,2147483659,161,161,213,213,257,258,259,161,161,161,11,17,17,24,0,22,17,17,24,0,0,0,0,38,39,39,39,39,39,39,39,39,39,39,23,17,17,23,39,39,39,39,39,39,39,39,39,39,39,39,40,0,0,0,0,0,0,22,17,17,24,0,0,0,0,0,0,0,0,0,0,0,0,0,0,0,0,0,0,0,0,0,0,0,0,0,
0,0,0,0,0,22,17,17,17,17,17,17,17,2147483675,161,161,161,161,289,290,291,161,161,161,27,17,17,24,0,22,17,17,24,0,0,0,0,0,0,0,0,0,0,0,0,0,0,0,22,17,17,24,0,0,0,0,0,0,0,0,0,0,0,0,0,0,0,0,0,0,0,22,17,17,24,0,0,0,0,0,0,0,0,0,0,0,0,0,0,0,0,0,0,0,0,0,0,0,0,0,
0,0,0,0,0,22,17,23,39,39,23,17,17,22,161,161,161,161,161,161,161,161,213,161,24,17,17,24,0,22,17,17,24,0,0,0,0,0,0,0,0,0,0,0,0,0,0,0,22,17,17,24,0,0,0,0,0,0,0,0,0,0,0,0,0,0,0,0,0,0,0,22,17,17,24,0,0,0,0,0,0,0,0,0,0,0,0,0,0,0,0,0,0,0,0,0,0,0,0,0,
0,0,0,0,0,22,17,24,0,0,22,17,17,22,161,161,216,161,161,161,161,161,213,213,24,17,17,24,0,22,17,17,24,0,0,0,0,0,0,0,0,0,0,0,0,0,0,0,22,17,17,24,0,0,0,0,0,0,0,0,0,0,0,0,0,0,0,0,0,0,0,22,17,17,24,0,0,0,0,0,0,0,0,0,0,0,0,0,0,0,0,0,0,0,0,0,0,0,0,0,
0,0,0,0,0,22,17,24,0,0,22,17,17,38,39,39,39,39,39,39,39,39,39,39,40,17,17,24,0,22,17,17,24,0,0,0,0,0,0,0,0,0,0,0,0,0,0,0,22,17,17,24,0,0,0,0,0,0,0,0,0,0,0,0,0,0,0,0,0,0,0,22,17,17,24,0,0,0,0,0,0,0,0,0,0,0,0,0,0,0,0,0,0,0,0,0,0,0,0,0,
0,0,0,0,0,22,17,24,0,0,22,17,17,17,17,17,17,17,17,17,17,17,17,17,17,17,17,24,0,22,17,17,24,0,0,0,0,0,0,0,0,0,0,0,0,0,0,0,22,17,17,24,0,0,0,0,0,0,0,0,0,0,0,0,0,0,0,0,0,6,7,23,17,17,23,7,7,7,7,7,7,7,7,7,7,7,0,0,0,0,0,0,0,0,0,0,0,0,0,0,
0,0,0,0,0,22,17,24,0,0,22,17,17,17,17,17,17,17,17,17,17,17,17,17,17,17,17,24,0,22,17,17,24,0,0,0,0,0,0,0,0,0,0,0,0,0,6,7,23,150,150,23,7,73,0,0,0,0,0,0,0,0,0,0,0,0,0,0,0,22,17,17,17,17,17,17,17,17,17,17,17,17,17,17,17,134,0,0,0,0,0,0,0,0,0,0,0,0,0,0,
0,0,0,0,0,22,17,24,0,0,38,39,39,39,39,39,23,17,17,23,39,39,39,39,23,17,17,24,0,22,17,17,24,0,0,0,0,0,0,0,0,0,0,0,6,7,23,76,76,76,76,76,76,90,8,0,0,0,0,0,0,0,0,0,0,0,0,0,0,22,17,17,17,17,17,17,17,17,17,17,17,17,17,17,17,134,0,0,0,0,0,0,0,0,0,0,0,0,0,0,
0,0,0,0,0,22,17,24,0,0,0,0,0,0,0,0,22,17,17,24,161,213,229,229,22,17,17,24,0,22,17,17,24,0,0,0,0,0,0,0,0,0,6,7,23,1073741843,1073741827,76,76,76,76,76,76,76,23,8,0,0,0,0,0,0,0,0,0,0,0,0,0,22,17,17,23,39,39,39,39,39,39,39,39,39,39,39,39,39,0,0,0,0,0,0,0,0,0,0,0,0,0,0,
0,0,0,6,7,23,150,23,7,7,7,7,7,7,8,0,22,17,17,11,161,161,213,245,2147483659,17,17,24,0,22,17,17,24,0,0,0,0,0,0,0,0,6,23,1073741827,1073741827,1073741828,76,76,76,76,76,76,76,76,76,23,8,0,0,0,0,0,0,0,0,0,0,0,0,22,17,17,24,0,0,0,0,0,0,0,0,0,0,0,0,0,0,0,0,0,0,0,0,0,0,0,0,0,0,0,
0,0,0,22,1610612850,19,17,17,19,17,19,119,17,119,24,0,22,17,17,27,161,161,161,245,2147483675,17,17,24,0,22,17,17,24,0,0,0,0,0,0,0,6,23,138,76,76,76,76,76,76,76,76,76,76,76,76,76,23,8,0,0,0,0,0,0,0,0,0,0,0,22,17,17,24,0,0,0,0,0,0,0,0,0,0,0,0,0,0,0,0,0,0,0,0,0,0,0,0,0,0,0,
0,0,0,22,19,19,17,19,19,17,19,17,17,119,24,0,22,17,17,24,161,177,161,261,22,17,17,24,0,22,17,17,24,0,0,0,0,0,0,6,23,76,154,76,76,76,16,16,76,76,76,76,16,16,76,76,76,24,0,0,0,0,0,0,0,0,0,0,0,22,17,17,24,0,0,0,0,0,0,0,0,0,0,0,0,0,0,0,0,0,0,0,0,0,0,0,0,0,0,0,
0,0,0,22,19,17,17,19,17,17,17,17,17,17,24,0,22,17,17,24,161,161,161,161,22,17,17,24,0,22,17,17,24,0,0,0,0,0,6,23,85,76,76,76,76,76,32,128,76,76,76,76,32,128,76,76,76,24,0,0,0,0,0,0,0,0,0,0,0,22,17,17,24,0,0,0,0,0,0,0,0,0,0,0,0,0,0,0,0,0,0,0,0,0,0,0,0,0,0,0,
0,0,0,22,19,17,17,17,17,17,17,17,17,17,24,0,22,17,17,11,216,161,161,161,2147483659,17,17,24,0,22,17,17,24,0,0,0,0,6,23,85,85,76,76,76,76,76,2147483776,32,76,76,76,76,2147483776,32,76,76,101,23,8,0,0,0,0,0,0,0,0,0,0,22,17,17,24,0,0,0,0,0,0,0,0,0,0,0,0,0,0,0,0,0,0,0,0,0,0,0,0,0,0,0,
0,0,0,22,19,17,17,19,17,17,19,17,17,17,1610612895,0,22,17,17,27,161,161,161,161,2147483675,17,17,24,0,22,17,17,24,0,0,0,6,23,85,85,85,76,76,76,76,76,47,48,76,76,76,76,47,48,76,76,85,101,23,8,0,0,0,0,0,0,0,0,0,22,17,17,24,0,0,0,0,0,0,0,0,0,0,0,0,0,0,0,0,0,0,0,0,0,0,0,0,0,0,0,
0,0,0,22,19,17,17,19,17,17,19,17,17,30,1610612895,0,22,17,17,24,177,177,161,161,22,17,17,23,7,39,17,17,39,7,7,7,23,76,76,76,76,76,76,76,76,76,76,76,76,76,76,76,76,76,76,76,76,85,101,24,0,0,0,0,0,0,0,0,0,22,17,17,24,0,0,0,0,0,0,0,0,0,0,0,0,0,0,0,0,0,0,0,0,0,0,0,0,0,0,0,
0,0,0,38,19,17,17,19,17,17,19,17,17,17,1610612895,0,22,17,17,24,161,161,177,161,22,17,17,17,17,17,17,17,17,17,17,17,150,76,76,76,76,76,76,76,76,76,76,76,76,76,76,76,76,76,76,76,76,76,76,23,8,0,0,0,0,0,0,0,0,22,17,17,24,0,0,0,0,0,0,0,0,0,0,0,0,0,0,0,0,0,0,0,0,0,0,0,0,0,0,0,
0,0,0,22,19,17,17,17,17,17,17,17,17,17,23,7,23,17,17,11,161,161,161,161,2147483659,17,17,17,17,17,17,17,17,17,17,17,150,76,76,76,76,76,76,76,76,76,76,76,76,76,76,76,76,76,76,76,76,76,76,76,23,7,7,7,7,7,7,7,7,23,17,17,24,0,0,0,0,0,0,0,0,0,0,0,0,0,0,0,0,0,0,0,0,0,0,0,0,0,0,0,
0,0,0,22,19,17,17,19,17,17,19,17,17,17,150,17,17,17,17,27,161,161,161,161,2147483675,17,17,23,39,39,39,39,39,39,39,39,23,76,76,76,76,16,16,76,76,76,76,76,76,16,16,76,76,76,76,76,76,76,76,76,150,17,17,17,17,17,17,17,17,17,17,17,24,0,0,0,0,0,0,0,0,0,0,0,0,0,0,0,0,0,0,0,0,0,0,0,0,0,0,0,
0,0,0,22,19,19,17,19,19,17,19,17,17,17,23,39,23,17,17,24,161,161,161,177,22,17,17,24,0,0,0,0,0,0,0,0,38,23,76,76,76,32,128,76,76,76,76,76,76,32,128,76,76,76,16,16,76,76,76,76,150,17,17,17,17,17,17,17,17,17,17,17,24,0,0,0,0,0,0,0,0,0,0,0,0,0,0,0,0,0,0,0,0,0,0,0,0,0,0,0,
0,0,0,22,1610612850,19,17,17,19,17,17,17,17,17,24,0,22,17,17,24,161,177,161,216,22,17,17,24,0,0,0,0,0,0,0,0,0,22,76,76,76,2147483776,32,76,76,76,76,76,76,2147483776,32,76,76,76,32,128,76,76,76,76,23,39,39,39,23,17,17,17,23,39,39,39,40,0,0,0,0,0,0,0,0,0,0,0,0,0,0,0,0,0,0,0,0,0,0,0,0,0,0,0,
0,0,0,38,1610612741,1610612757,1610612757,1610612757,1610612757,1610612757,1610612757,1610612757,17,17,24,0,22,17,17,11,161,161,177,161,2147483659,17,17,24,0,0,0,0,0,0,0,0,0,38,23,76,76,47,48,76,76,76,76,76,76,47,48,76,76,76,2147483776,32,76,76,76,76,24,0,0,0,22,17,17,17,24,0,0,0,0,0,0,0,0,0,0,0,0,0,0,0,0,0,0,0,0,0,0,0,0,0,0,0,0,0,0,0,
0,0,0,22,119,119,17,17,17,17,17,17,17,17,24,0,22,17,17,27,161,161,161,161,2147483675,17,17,24,0,0,0,0,0,0,0,0,0,0,38,23,76,76,76,76,76,76,76,76,76,76,76,76,76,76,47,48,76,76,76,23,40,0,0,0,22,17,17,17,24,0,0,0,0,0,0,0,0,0,0,0,0,0,0,0,0,0,0,0,0,0,0,0,0,0,0,0,0,0,0,0,
0,0,0,22,119,17,17,17,17,17,17,17,17,17,24,0,22,17,17,24,161,161,161,161,22,17,17,24,0,0,0,0,0,0,0,0,0,0,0,38,23,76,76,76,76,76,76,76,76,76,76,76,76,76,76,76,76,76,23,40,0,0,0,0,22,17,17,17,24,0,0,0,0,0,0,0,0,0,0,0,0,0,0,0,0,0,0,0,0,0,0,0,0,0,0,0,0,0,0,0,
0,0,0,38,23,150,23,39,39,39,39,39,39,39,40,0,22,17,17,24,206,161,161,161,22,17,17,24,0,0,0,0,0,0,0,0,0,0,0,0,38,39,23,76,76,76,76,76,76,76,76,76,76,76,76,76,76,23,40,0,0,0,0,0,22,17,17,17,24,0,0,0,0,0,0,0,0,0,0,0,0,0,0,0,0,0,0,0,0,0,0,0,0,0,0,0,0,0,0,0,
0,0,0,0,22,17,24,0,0,0,0,0,0,0,0,0,22,17,17,11,222,161,161,161,2147483659,17,17,24,0,0,0,0,0,0,0,0,0,0,0,0,0,0,38,23,76,76,76,76,76,76,76,76,76,76,76,76,23,40,0,0,0,0,0,0,22,17,17,17,24,0,0,0,0,0,0,0,0,0,0,0,0,0,0,0,0,0,0,0,0,0,0,0,0,0,0,0,0,0,0,0,
0,0,0,0,22,17,24,0,0,0,0,0,0,0,0,0,22,17,17,27,209,241,241,210,2147483675,17,17,24,0,0,0,0,0,0,0,0,0,0,0,0,0,0,0,38,23,2147483779,76,76,76,76,76,76,76,76,131,23,40,0,0,0,0,0,0,0,22,17,17,17,24,0,0,0,0,0,0,0,0,0,0,0,0,0,0,0,0,0,0,0,0,0,0,0,0,0,0,0,0,0,0,0,
6,7,7,7,23,17,23,7,7,7,7,7,7,7,7,7,23,17,17,24,242,242,242,242,22,17,17,24,0,0,0,0,0,0,0,0,0,0,0,0,0,0,0,0,38,39,23,76,76,76,76,76,76,23,39,40,0,0,0,0,0,0,0,0,22,17,17,17,24,0,0,0,0,0,0,0,0,0,0,0,0,0,0,0,0,0,0,0,0,0,0,0,0,0,0,0,0,0,0,0,
22,17,17,17,17,17,17,17,17,17,17,17,17,17,17,17,17,17,17,24,242,242,242,242,22,17,17,24,0,0,0,0,0,0,0,0,0,0,0,0,0,0,0,0,0,0,38,39,23,150,150,39,39,40,0,0,0,0,0,0,0,0,0,0,22,17,17,17,24,0,0,0,0,0,0,0,0,0,0,0,0,0,0,0,0,0,0,0,0,0,0,0,0,0,0,0,0,0,0,0,
22,17,17,17,17,17,17,17,17,17,17,17,17,17,17,17,17,17,17,24,265,265,265,265,22,17,17,24,0,0,0,0,0,0,0,0,0,0,0,0,0,0,0,0,0,0,0,0,22,17,17,24,0,0,0,0,0,0,0,0,0,0,0,0,22,17,17,17,24,0,0,0,0,0,0,0,0,0,0,0,0,0,0,0,0,0,0,0,0,0,0,0,0,0,0,0,0,0,0,0,
38,39,39,39,23,150,23,39,39,39,39,39,39,39,39,39,39,39,39,40,281,282,282,283,22,17,17,24,0,0,0,0,0,0,0,0,0,0,0,0,0,0,0,0,0,0,0,0,22,17,17,24,0,0,0,0,0,0,0,0,0,0,0,0,22,17,17,17,24,0,0,0,0,0,0,0,0,0,0,0,0,0,0,0,0,0,0,0,0,0,0,0,0,0,0,0,0,0,0,0,
0,0,0,0,22,17,24,274,274,274,274,274,274,274,274,274,274,274,274,274,274,274,274,274,22,17,17,24,0,0,0,0,0,0,0,0,0,0,0,0,0,0,0,0,0,0,0,0,22,17,17,24,0,0,0,0,0,0,0,0,0,0,0,0,22,17,17,17,24,0,0,0,0,0,0,0,0,0,0,0,0,0,0,0,0,0,0,0,0,0,0,0,0,0,0,0,0,0,0,0,
6,7,7,7,23,17,23,7,159,159,159,7,7,7,7,7,7,159,159,159,7,7,7,8,22,17,17,24,0,0,0,0,0,0,0,0,0,0,0,0,0,0,0,0,0,0,0,0,22,17,17,24,0,0,0,0,0,0,0,0,0,0,0,0,22,17,17,17,24,0,0,0,0,0,0,0,0,0,0,0,0,0,0,0,0,0,0,0,0,0,0,0,0,0,0,0,0,0,0,0,
22,17,17,17,17,17,17,17,17,17,17,17,17,17,17,17,17,17,17,17,17,17,17,24,22,17,17,23,7,7,7,7,7,7,7,7,7,7,7,7,7,7,7,7,7,7,7,7,23,17,17,39,7,7,7,7,7,7,7,7,7,7,7,7,23,17,17,17,24,0,0,0,0,0,0,0,0,0,0,0,0,0,0,0,0,0,0,0,0,0,0,0,0,0,0,0,0,0,0,0,
22,17,17,17,17,17,17,17,17,17,17,17,17,17,17,17,17,17,17,17,17,17,17,150,17,17,17,17,17,17,17,17,17,17,17,17,17,17,17,17,17,17,17,17,17,17,17,17,17,17,17,17,17,17,17,150,17,17,17,17,17,17,17,17,17,17,17,17,24,0,0,0,0,0,0,0,0,0,0,0,0,0,0,0,0,0,0,0,0,0,0,0,0,0,0,0,0,0,0,0,
22,17,17,2,3,4,17,17,2,3,4,17,17,2,3,4,17,17,2,3,4,17,17,150,17,17,17,17,17,17,17,17,17,17,17,17,17,17,17,17,17,17,17,17,17,17,17,17,17,17,17,17,17,17,17,150,17,17,17,17,17,17,17,17,17,17,17,17,24,0,0,0,0,0,0,0,0,0,0,0,0,0,0,0,0,0,0,0,0,0,0,0,0,0,0,0,0,0,0,0,
22,17,17,1610612854,53,2684354678,17,17,1610612854,53,2684354678,17,17,1610612854,53,2684354678,17,17,1610612854,53,2684354678,17,17,24,38,39,39,39,39,39,39,39,39,39,39,39,39,39,39,39,39,39,39,39,39,39,39,39,39,39,39,39,39,39,39,39,39,39,39,39,39,39,39,39,39,39,39,39,40,0,0,0,0,0,0,0,0,0,0,0,0,0,0,0,0,0,0,0,0,0,0,0,0,0,0,0,0,0,0,0,
22,17,17,18,53,20,17,17,18,53,20,17,17,18,53,20,17,17,18,53,20,17,17,24,0,0,0,0,0,0,0,0,0,0,0,0,0,0,0,0,0,0,0,0,0,0,0,0,0,0,0,0,0,0,0,0,0,0,0,0,0,0,0,0,0,0,0,0,0,0,0,0,0,0,0,0,0,0,0,0,0,0,0,0,0,0,0,0,0,0,0,0,0,0,0,0,0,0,0,0,
22,17,17,1610612854,53,2684354678,17,17,1610612854,53,2684354678,17,17,1610612854,53,2684354678,17,17,1610612854,53,2684354678,17,17,24,0,0,0,0,0,0,0,0,0,0,0,0,0,0,0,0,0,0,0,0,0,0,0,0,0,0,0,0,0,0,0,0,0,0,0,0,0,0,0,0,0,0,0,0,0,0,0,0,0,0,0,0,0,0,0,0,0,0,0,0,0,0,0,0,0,0,0,0,0,0,0,0,0,0,0,0,
22,17,17,18,53,20,17,17,18,53,20,17,17,18,53,20,17,17,18,53,20,17,17,24,0,0,0,0,0,0,0,0,0,0,0,0,0,0,0,0,0,0,0,0,0,0,0,0,0,0,0,0,0,0,0,0,0,0,0,0,0,0,0,0,0,0,0,0,0,0,0,0,0,0,0,0,0,0,0,0,0,0,0,0,0,0,0,0,0,0,0,0,0,0,0,0,0,0,0,0,
22,17,17,1610612854,53,2684354678,17,17,1610612854,53,2684354678,17,17,1610612854,53,2684354678,17,17,1610612854,53,2684354678,17,17,24,0,0,0,0,0,0,0,0,0,0,0,0,0,0,0,0,0,0,0,0,0,0,0,0,0,0,0,0,0,0,0,0,0,0,0,0,0,0,0,0,0,0,0,0,0,0,0,0,0,0,0,0,0,0,0,0,0,0,0,0,0,0,0,0,0,0,0,0,0,0,0,0,0,0,0,0,
22,17,17,18,53,20,17,17,18,53,20,17,17,18,53,20,17,17,18,53,20,17,17,24,0,0,0,0,0,0,0,0,0,0,0,0,0,0,0,0,0,0,0,0,0,0,0,0,0,0,0,0,0,0,0,0,0,0,0,0,0,0,0,0,0,0,0,0,0,0,0,0,0,0,0,0,0,0,0,0,0,0,0,0,0,0,0,0,0,0,0,0,0,0,0,0,0,0,0,0,
22,17,17,1610612854,53,2684354678,17,17,1610612854,53,2684354678,17,17,1610612854,53,2684354678,17,17,1610612854,53,2684354678,17,17,24,0,0,0,0,0,0,0,0,0,0,0,0,0,0,0,0,0,0,0,0,0,0,0,0,0,0,0,0,0,0,0,0,0,0,0,0,0,0,0,0,0,0,0,0,0,0,0,0,0,0,0,0,0,0,0,0,0,0,0,0,0,0,0,0,0,0,0,0,0,0,0,0,0,0,0,0,
38,39,39,39,39,39,39,39,39,39,39,39,39,39,39,39,39,39,39,39,39,39,39,40,0,0,0,0,0,0,0,0,0,0,0,0,0,0,0,0,0,0,0,0,0,0,0,0,0,0,0,0,0,0,0,0,0,0,0,0,0,0,0,0,0,0,0,0,0,0,0,0,0,0,0,0,0,0,0,0,0,0,0,0,0,0,0,0,0,0,0,0,0,0,0,0,0,0,0,0
</data>
 </layer>
 <layer id="7" name="ClosedDoors" width="100" height="60">
  <data encoding="csv">
0,0,0,0,0,0,0,0,0,0,0,0,0,0,0,0,0,0,0,0,0,0,0,0,0,0,0,0,0,0,0,0,0,0,0,0,0,0,0,0,0,0,0,0,0,0,0,0,0,0,0,0,0,0,0,0,0,0,0,0,0,0,0,0,0,0,0,0,0,0,0,0,0,0,0,0,0,0,0,0,0,0,0,0,0,0,0,0,0,0,0,0,0,0,0,0,0,0,0,0,
0,0,0,0,0,0,0,0,0,0,0,0,0,0,0,0,0,0,0,0,0,0,0,0,0,0,0,0,0,0,0,0,0,0,0,0,0,0,0,0,0,0,0,0,0,0,0,0,0,0,0,0,0,0,0,0,0,0,0,0,0,0,0,0,0,0,0,0,0,0,0,0,0,0,0,0,0,0,0,0,0,0,0,0,0,0,0,0,0,0,0,0,0,0,0,0,0,0,0,0,
0,0,0,0,0,0,0,0,0,0,0,0,0,0,0,0,0,0,0,0,0,0,0,0,0,0,0,0,0,0,0,0,0,0,0,0,0,0,0,0,0,0,0,0,0,0,0,0,0,0,0,0,0,0,0,0,0,0,0,0,0,0,0,0,0,0,0,0,0,0,0,0,0,0,0,0,0,0,0,0,0,0,0,0,0,0,0,0,0,0,0,0,0,0,0,0,0,0,0,0,
0,0,0,0,0,0,0,0,0,0,0,0,0,0,0,0,0,0,0,0,0,0,0,0,0,0,0,0,0,0,0,0,0,0,0,0,0,0,0,0,0,0,0,0,0,0,0,0,0,0,0,0,0,0,0,0,0,0,0,0,0,0,0,0,0,0,0,0,0,0,0,0,0,0,0,0,0,0,0,0,0,0,0,0,0,0,0,0,0,0,0,0,0,0,0,0,0,0,0,0,
0,0,0,0,0,0,0,0,0,0,0,0,0,0,0,0,0,0,0,0,0,0,0,0,0,0,0,0,0,0,0,0,0,0,0,0,0,0,0,0,0,0,0,0,0,0,0,0,0,0,0,0,0,0,0,0,0,0,0,0,0,0,0,0,0,0,0,0,0,0,0,0,0,0,0,0,0,0,0,0,0,0,0,0,0,0,0,0,0,0,0,0,0,0,0,0,0,0,0,0,
0,0,0,0,0,0,0,0,0,0,0,0,0,0,0,0,0,0,0,0,0,0,0,0,0,0,0,0,0,0,0,0,0,0,0,0,0,0,0,0,0,0,0,0,0,0,0,0,0,0,0,0,0,0,0,0,0,0,0,0,0,0,0,0,0,0,0,0,0,0,0,0,0,0,0,0,0,0,0,0,0,0,0,0,0,0,0,0,0,0,0,0,0,0,0,0,0,0,0,0,
0,0,0,0,0,0,0,0,0,0,0,0,0,0,0,0,0,0,0,0,0,0,0,0,0,0,0,0,0,0,0,0,0,0,0,0,0,0,0,0,0,0,0,0,0,0,0,0,0,0,0,0,0,0,0,0,0,0,0,0,0,0,0,0,0,0,0,0,0,0,0,0,0,0,0,0,0,0,0,0,0,0,0,0,0,0,0,0,0,0,0,0,0,0,0,0,0,0,0,0,
0,0,0,0,0,0,0,0,0,0,0,0,0,0,0,0,0,0,0,0,0,0,0,0,0,0,0,0,0,0,0,0,0,0,0,0,0,0,0,0,0,0,0,0,0,0,0,0,0,0,0,0,0,0,0,0,0,0,0,0,0,0,0,0,0,0,0,0,0,0,0,0,0,0,0,0,0,0,0,0,0,0,0,0,0,0,0,0,0,0,0,0,0,0,0,0,0,0,0,0,
0,0,0,0,0,0,0,0,0,0,0,0,0,0,0,0,0,0,0,0,0,0,0,0,0,0,0,0,0,0,0,0,0,0,0,0,0,0,0,0,0,0,0,0,0,0,0,0,0,0,0,0,0,0,0,0,0,0,0,0,0,0,0,0,0,0,0,0,0,0,0,0,0,0,0,0,0,0,0,0,0,0,0,0,0,0,0,0,0,0,0,0,0,0,0,0,0,0,0,0,
0,0,0,0,0,0,0,0,0,0,0,0,0,0,0,0,0,0,0,0,0,0,0,0,0,0,0,0,0,0,0,0,0,0,0,0,0,0,0,0,0,0,0,0,0,0,0,0,0,0,0,0,0,0,0,0,0,0,0,0,0,0,0,0,0,0,0,0,0,0,0,0,0,0,0,0,0,0,0,0,0,0,0,0,0,0,0,0,0,0,0,0,0,0,0,0,0,0,0,0,
0,0,0,0,0,0,0,0,0,0,0,0,0,0,0,0,0,149,0,0,0,0,0,0,0,0,0,0,0,0,0,0,0,0,0,0,0,0,0,0,0,0,0,0,0,0,0,0,0,0,0,0,0,0,0,0,0,0,0,0,0,0,0,0,0,0,0,0,0,0,0,0,0,0,0,0,0,0,0,0,0,0,0,0,0,0,0,0,0,0,0,0,0,0,0,0,0,0,0,0,
0,0,0,0,0,0,0,0,0,0,0,0,0,0,0,0,0,0,0,0,0,0,0,0,0,0,0,0,0,0,0,0,0,0,0,0,0,0,0,0,0,0,0,0,0,0,0,0,0,0,0,0,0,0,0,0,0,0,0,0,0,0,0,0,0,0,0,0,0,0,0,0,0,0,0,0,0,0,0,0,0,0,0,0,0,0,0,0,0,0,0,0,0,0,0,0,0,0,0,0,
0,0,0,0,0,0,0,0,0,0,0,0,0,0,0,0,0,0,0,0,0,0,0,0,0,0,0,0,0,0,0,0,0,0,0,0,0,0,0,0,0,0,0,0,0,0,0,0,0,0,0,0,0,0,0,0,0,0,0,0,0,0,0,0,0,0,0,0,0,0,0,0,0,0,0,0,0,0,0,0,0,0,0,0,0,0,0,0,0,0,0,0,0,0,0,0,0,0,0,0,
0,0,0,0,0,0,0,0,0,0,0,0,0,0,0,0,0,0,0,0,0,0,0,0,0,0,0,0,0,0,0,0,0,0,0,0,0,0,0,0,0,0,0,0,0,0,0,0,0,0,0,0,0,0,0,0,0,0,0,0,0,0,0,0,0,0,0,0,0,0,0,0,0,0,0,0,0,0,0,0,0,0,0,0,0,0,0,0,0,0,0,0,0,0,0,0,0,0,0,0,
0,0,0,0,0,0,0,0,0,0,0,0,0,0,0,0,0,0,0,0,0,0,0,0,0,0,0,0,0,0,0,0,0,0,0,0,0,0,0,0,0,0,0,0,0,0,0,0,0,0,0,0,0,0,0,0,0,0,0,0,0,0,0,0,0,0,0,0,0,0,0,0,0,0,0,0,0,0,0,0,0,0,0,0,0,0,0,0,0,0,0,0,0,0,0,0,0,0,0,0,
0,0,0,0,0,0,0,0,0,0,0,0,0,0,0,0,0,0,0,0,0,0,0,0,0,0,0,0,0,0,0,0,0,0,0,0,0,0,0,0,0,0,0,0,0,0,0,0,0,0,0,0,0,0,0,0,0,0,0,0,0,0,0,0,0,0,0,0,0,0,0,0,0,0,0,0,0,0,0,0,0,0,0,0,0,0,0,0,0,0,0,0,0,0,0,0,0,0,0,0,
0,0,0,0,0,0,0,0,0,0,0,0,0,0,0,0,0,0,0,0,0,0,0,0,0,0,0,0,0,0,0,0,0,0,0,0,0,0,0,0,0,0,0,0,0,0,0,0,0,0,0,0,0,0,0,0,0,0,0,0,0,0,0,0,0,0,0,0,0,0,0,0,0,0,0,0,0,0,0,0,0,0,0,0,0,0,0,0,0,0,0,0,0,0,0,0,0,0,0,0,
0,0,0,0,0,0,0,0,0,0,0,0,0,0,0,0,0,0,0,0,0,0,0,0,0,0,0,0,0,0,0,0,0,0,0,0,0,0,0,0,0,0,0,0,0,0,0,0,0,0,0,0,0,0,0,0,0,0,0,0,0,0,0,0,0,0,0,0,0,0,0,0,0,0,0,0,0,0,0,0,0,0,0,0,0,0,0,0,0,0,0,0,0,0,0,0,0,0,0,0,
0,0,0,0,0,0,0,0,0,0,0,0,0,0,0,0,0,0,0,0,0,0,0,0,0,0,0,0,0,0,0,0,0,0,0,0,0,0,0,0,0,0,0,0,0,0,0,0,0,0,0,0,0,0,0,0,0,0,0,0,0,0,0,0,0,0,0,0,0,0,0,0,0,0,0,0,0,0,0,0,0,0,0,0,0,0,0,0,0,0,0,0,0,0,0,0,0,0,0,0,
0,0,0,0,0,0,0,0,0,0,0,0,0,0,0,0,0,0,0,0,0,0,0,0,0,0,0,0,0,0,0,0,0,0,0,0,0,0,0,0,0,0,0,0,0,0,0,0,0,0,0,0,0,0,0,0,0,0,0,0,0,0,0,0,0,0,0,0,0,0,0,0,0,0,0,0,0,0,0,0,0,0,0,0,0,0,0,0,0,0,0,0,0,0,0,0,0,0,0,0,
0,0,0,0,0,0,0,0,0,0,0,0,0,0,0,0,0,0,0,0,0,0,0,0,0,0,0,0,0,0,0,0,0,0,0,0,0,0,0,0,0,0,0,0,0,0,0,0,0,0,0,0,0,0,0,0,0,0,0,0,0,0,0,0,0,0,0,0,0,0,0,0,0,0,0,0,0,0,0,0,0,0,0,0,0,0,0,0,0,0,0,0,0,0,0,0,0,0,0,0,
0,0,0,0,0,0,0,0,0,0,0,0,0,0,0,0,0,0,0,0,0,0,0,0,0,0,0,0,0,0,0,0,0,0,0,0,0,0,0,0,0,0,0,0,0,0,0,0,0,0,0,0,0,0,0,0,0,0,0,0,0,0,0,0,0,0,0,0,0,0,0,0,0,0,0,0,0,0,0,0,0,0,0,0,0,0,0,0,0,0,0,0,0,0,0,0,0,0,0,0,
0,0,0,0,0,0,0,0,0,0,0,0,0,0,0,0,0,0,0,0,0,0,0,0,0,0,0,0,0,0,0,0,0,0,0,0,0,0,0,0,0,0,0,0,0,0,0,0,0,149,149,0,0,0,0,0,0,0,0,0,0,0,0,0,0,0,0,0,0,0,0,0,0,0,0,0,0,0,0,0,0,0,0,0,0,0,0,0,0,0,0,0,0,0,0,0,0,0,0,0,
0,0,0,0,0,0,0,0,0,0,0,0,0,0,0,0,0,0,0,0,0,0,0,0,0,0,0,0,0,0,0,0,0,0,0,0,0,0,0,0,0,0,0,0,0,0,0,0,0,0,0,0,0,0,0,0,0,0,0,0,0,0,0,0,0,0,0,0,0,0,0,0,0,0,0,0,0,0,0,0,0,0,0,0,0,0,0,0,0,0,0,0,0,0,0,0,0,0,0,0,
0,0,0,0,0,0,0,0,0,0,0,0,0,0,0,0,0,0,0,0,0,0,0,0,0,0,0,0,0,0,0,0,0,0,0,0,0,0,0,0,0,0,0,0,0,0,0,0,0,0,0,0,0,0,0,0,0,0,0,0,0,0,0,0,0,0,0,0,0,0,0,0,0,0,0,0,0,0,0,0,0,0,0,0,0,0,0,0,0,0,0,0,0,0,0,0,0,0,0,0,
0,0,0,0,0,0,0,0,0,0,0,0,0,0,0,0,0,0,0,0,0,0,0,0,0,0,0,0,0,0,0,0,0,0,0,0,0,0,0,0,0,0,0,0,0,0,0,0,0,0,0,0,0,0,0,0,0,0,0,0,0,0,0,0,0,0,0,0,0,0,0,0,0,0,0,0,0,0,0,0,0,0,0,0,0,0,0,0,0,0,0,0,0,0,0,0,0,0,0,0,
0,0,0,0,0,0,0,0,0,0,0,0,0,0,0,0,0,0,0,0,0,0,0,0,0,0,0,0,0,0,0,0,0,0,0,0,0,0,0,0,0,0,0,0,0,0,0,0,0,0,0,0,0,0,0,0,0,0,0,0,0,0,0,0,0,0,0,0,0,0,0,0,0,0,0,0,0,0,0,0,0,0,0,0,0,0,0,0,0,0,0,0,0,0,0,0,0,0,0,0,
0,0,0,0,0,0,0,0,0,0,0,0,0,0,0,0,0,0,0,0,0,0,0,0,0,0,0,0,0,0,0,0,0,0,0,0,0,0,0,0,0,0,0,0,0,0,0,0,0,0,0,0,0,0,0,0,0,0,0,0,0,0,0,0,0,0,0,0,0,0,0,0,0,0,0,0,0,0,0,0,0,0,0,0,0,0,0,0,0,0,0,0,0,0,0,0,0,0,0,0,
0,0,0,0,0,0,0,0,0,0,0,0,0,0,0,0,0,0,0,0,0,0,0,0,0,0,0,0,0,0,0,0,0,0,0,0,0,0,0,0,0,0,0,0,0,0,0,0,0,0,0,0,0,0,0,0,0,0,0,0,0,0,0,0,0,0,0,0,0,0,0,0,0,0,0,0,0,0,0,0,0,0,0,0,0,0,0,0,0,0,0,0,0,0,0,0,0,0,0,0,
0,0,0,0,0,0,0,0,0,0,0,0,0,0,0,0,0,0,0,0,0,0,0,0,0,0,0,0,0,0,0,0,0,0,0,0,0,0,0,0,0,0,0,0,0,0,0,0,0,0,0,0,0,0,0,0,0,0,0,0,0,0,0,0,0,0,0,0,0,0,0,0,0,0,0,0,0,0,0,0,0,0,0,0,0,0,0,0,0,0,0,0,0,0,0,0,0,0,0,0,
0,0,0,0,0,0,0,0,0,0,0,0,0,0,0,0,0,0,0,0,0,0,0,0,0,0,0,0,0,0,0,0,0,0,0,0,0,0,0,0,0,0,0,0,0,0,0,0,0,0,0,0,0,0,0,0,0,0,0,0,0,0,0,0,0,0,0,0,0,0,0,0,0,0,0,0,0,0,0,0,0,0,0,0,0,0,0,0,0,0,0,0,0,0,0,0,0,0,0,0,
0,0,0,0,0,0,0,0,0,0,0,0,0,0,0,0,0,0,0,0,0,0,0,0,0,0,0,0,0,0,0,0,0,0,0,0,0,0,0,0,0,0,0,0,0,0,0,0,0,0,0,0,0,0,0,0,0,0,0,0,0,0,0,0,0,0,0,0,0,0,0,0,0,0,0,0,0,0,0,0,0,0,0,0,0,0,0,0,0,0,0,0,0,0,0,0,0,0,0,0,
0,0,0,0,0,0,0,0,0,0,0,0,0,0,0,0,0,0,0,0,0,0,0,0,0,0,0,0,0,0,0,0,0,0,0,0,0,0,0,0,0,0,0,0,0,0,0,0,0,0,0,0,0,0,0,0,0,0,0,0,0,0,0,0,0,0,0,0,0,0,0,0,0,0,0,0,0,0,0,0,0,0,0,0,0,0,0,0,0,0,0,0,0,0,0,0,0,0,0,0,
0,0,0,0,0,0,0,0,0,0,0,0,0,0,0,0,0,0,0,0,0,0,0,0,0,0,0,0,0,0,0,0,0,0,0,0,0,0,0,0,0,0,0,0,0,0,0,0,0,0,0,0,0,0,0,0,0,0,0,0,0,0,0,0,0,0,0,0,0,0,0,0,0,0,0,0,0,0,0,0,0,0,0,0,0,0,0,0,0,0,0,0,0,0,0,0,0,0,0,0,
0,0,0,0,0,0,0,0,0,0,0,0,0,0,0,0,0,0,0,0,0,0,0,0,0,0,0,0,0,0,0,0,0,0,0,0,0,0,0,0,0,0,0,0,0,0,0,0,0,0,0,0,0,0,0,0,0,0,0,0,149,0,0,0,0,0,0,0,0,0,0,0,0,0,0,0,0,0,0,0,0,0,0,0,0,0,0,0,0,0,0,0,0,0,0,0,0,0,0,0,
0,0,0,0,0,0,0,0,0,0,0,0,0,0,0,0,0,0,0,0,0,0,0,0,0,0,0,0,0,0,0,0,0,0,0,0,0,0,0,0,0,0,0,0,0,0,0,0,0,0,0,0,0,0,0,0,0,0,0,0,149,0,0,0,0,0,0,0,0,0,0,0,0,0,0,0,0,0,0,0,0,0,0,0,0,0,0,0,0,0,0,0,0,0,0,0,0,0,0,0,
0,0,0,0,0,0,0,0,0,0,0,0,0,0,0,0,0,0,0,0,0,0,0,0,0,0,0,0,0,0,0,0,0,0,0,0,0,0,0,0,0,0,0,0,0,0,0,0,0,0,0,0,0,0,0,0,0,0,0,0,0,0,0,0,0,0,0,0,0,0,0,0,0,0,0,0,0,0,0,0,0,0,0,0,0,0,0,0,0,0,0,0,0,0,0,0,0,0,0,0,
0,0,0,0,0,0,0,0,0,0,0,0,0,0,0,0,0,0,0,0,0,0,0,0,0,0,0,0,0,0,0,0,0,0,0,0,0,0,0,0,0,0,0,0,0,0,0,0,0,0,0,0,0,0,0,0,0,0,0,0,0,0,0,0,0,0,0,0,0,0,0,0,0,0,0,0,0,0,0,0,0,0,0,0,0,0,0,0,0,0,0,0,0,0,0,0,0,0,0,0,
0,0,0,0,0,0,0,0,0,0,0,0,0,0,0,0,0,0,0,0,0,0,0,0,0,0,0,0,0,0,0,0,0,0,0,0,0,0,0,0,0,0,0,0,0,0,0,0,0,0,0,0,0,0,0,0,0,0,0,0,0,0,0,0,0,0,0,0,0,0,0,0,0,0,0,0,0,0,0,0,0,0,0,0,0,0,0,0,0,0,0,0,0,0,0,0,0,0,0,0,
0,0,0,0,0,0,0,0,0,0,0,0,0,0,0,0,0,0,0,0,0,0,0,0,0,0,0,0,0,0,0,0,0,0,0,0,0,0,0,0,0,0,0,0,0,0,0,0,0,0,0,0,0,0,0,0,0,0,0,0,0,0,0,0,0,0,0,0,0,0,0,0,0,0,0,0,0,0,0,0,0,0,0,0,0,0,0,0,0,0,0,0,0,0,0,0,0,0,0,0,
0,0,0,0,0,0,0,0,0,0,0,0,0,0,0,0,0,0,0,0,0,0,0,0,0,0,0,0,0,0,0,0,0,0,0,0,0,0,0,0,0,0,0,0,0,0,0,0,0,0,0,0,0,0,0,0,0,0,0,0,0,0,0,0,0,0,0,0,0,0,0,0,0,0,0,0,0,0,0,0,0,0,0,0,0,0,0,0,0,0,0,0,0,0,0,0,0,0,0,0,
0,0,0,0,0,0,0,0,0,0,0,0,0,0,0,0,0,0,0,0,0,0,0,0,0,0,0,0,0,0,0,0,0,0,0,0,0,0,0,0,0,0,0,0,0,0,0,0,0,0,0,0,0,0,0,0,0,0,0,0,0,0,0,0,0,0,0,0,0,0,0,0,0,0,0,0,0,0,0,0,0,0,0,0,0,0,0,0,0,0,0,0,0,0,0,0,0,0,0,0,
0,0,0,0,0,0,0,0,0,0,0,0,0,0,0,0,0,0,0,0,0,0,0,0,0,0,0,0,0,0,0,0,0,0,0,0,0,0,0,0,0,0,0,0,0,0,0,0,0,0,0,0,0,0,0,0,0,0,0,0,0,0,0,0,0,0,0,0,0,0,0,0,0,0,0,0,0,0,0,0,0,0,0,0,0,0,0,0,0,0,0,0,0,0,0,0,0,0,0,0,
0,0,0,0,0,0,0,0,0,0,0,0,0,0,0,0,0,0,0,0,0,0,0,0,0,0,0,0,0,0,0,0,0,0,0,0,0,0,0,0,0,0,0,0,0,0,0,0,0,0,0,0,0,0,0,0,0,0,0,0,0,0,0,0,0,0,0,0,0,0,0,0,0,0,0,0,0,0,0,0,0,0,0,0,0,0,0,0,0,0,0,0,0,0,0,0,0,0,0,0,
0,0,0,0,0,0,0,0,0,0,0,0,0,0,0,0,0,0,0,0,0,0,0,0,0,0,0,0,0,0,0,0,0,0,0,0,0,0,0,0,0,0,0,0,0,0,0,0,0,149,149,0,0,0,0,0,0,0,0,0,0,0,0,0,0,0,0,0,0,0,0,0,0,0,0,0,0,0,0,0,0,0,0,0,0,0,0,0,0,0,0,0,0,0,0,0,0,0,0,0,
0,0,0,0,0,0,0,0,0,0,0,0,0,0,0,0,0,0,0,0,0,0,0,0,0,0,0,0,0,0,0,0,0,0,0,0,0,0,0,0,0,0,0,0,0,0,0,0,0,0,0,0,0,0,0,0,0,0,0,0,0,0,0,0,0,0,0,0,0,0,0,0,0,0,0,0,0,0,0,0,0,0,0,0,0,0,0,0,0,0,0,0,0,0,0,0,0,0,0,0,
0,0,0,0,0,0,0,0,0,0,0,0,0,0,0,0,0,0,0,0,0,0,0,0,0,0,0,0,0,0,0,0,0,0,0,0,0,0,0,0,0,0,0,0,0,0,0,0,0,0,0,0,0,0,0,0,0,0,0,0,0,0,0,0,0,0,0,0,0,0,0,0,0,0,0,0,0,0,0,0,0,0,0,0,0,0,0,0,0,0,0,0,0,0,0,0,0,0,0,0,
0,0,0,0,0,0,0,0,0,0,0,0,0,0,0,0,0,0,0,0,0,0,0,0,0,0,0,0,0,0,0,0,0,0,0,0,0,0,0,0,0,0,0,0,0,0,0,0,0,0,0,0,0,0,0,0,0,0,0,0,0,0,0,0,0,0,0,0,0,0,0,0,0,0,0,0,0,0,0,0,0,0,0,0,0,0,0,0,0,0,0,0,0,0,0,0,0,0,0,0,
0,0,0,0,0,0,0,0,0,0,0,0,0,0,0,0,0,0,0,0,0,0,0,0,0,0,0,0,0,0,0,0,0,0,0,0,0,0,0,0,0,0,0,0,0,0,0,0,0,0,0,0,0,0,0,0,0,0,0,0,0,0,0,0,0,0,0,0,0,0,0,0,0,0,0,0,0,0,0,0,0,0,0,0,0,0,0,0,0,0,0,0,0,0,0,0,0,0,0,0,
0,0,0,0,0,0,0,0,0,0,0,0,0,0,0,0,0,0,0,0,0,0,0,0,0,0,0,0,0,0,0,0,0,0,0,0,0,0,0,0,0,0,0,0,0,0,0,0,0,0,0,0,0,0,0,0,0,0,0,0,0,0,0,0,0,0,0,0,0,0,0,0,0,0,0,0,0,0,0,0,0,0,0,0,0,0,0,0,0,0,0,0,0,0,0,0,0,0,0,0,
0,0,0,0,0,0,0,0,0,0,0,0,0,0,0,0,0,0,0,0,0,0,0,149,0,0,0,0,0,0,0,0,0,0,0,0,0,0,0,0,0,0,0,0,0,0,0,0,0,0,0,0,0,0,0,149,0,0,0,0,0,0,0,0,0,0,0,0,0,0,0,0,0,0,0,0,0,0,0,0,0,0,0,0,0,0,0,0,0,0,0,0,0,0,0,0,0,0,0,0,
0,0,0,0,0,0,0,0,0,0,0,0,0,0,0,0,0,0,0,0,0,0,0,149,0,0,0,0,0,0,0,0,0,0,0,0,0,0,0,0,0,0,0,0,0,0,0,0,0,0,0,0,0,0,0,149,0,0,0,0,0,0,0,0,0,0,0,0,0,0,0,0,0,0,0,0,0,0,0,0,0,0,0,0,0,0,0,0,0,0,0,0,0,0,0,0,0,0,0,0,
0,0,0,0,0,0,0,0,0,0,0,0,0,0,0,0,0,0,0,0,0,0,0,0,0,0,0,0,0,0,0,0,0,0,0,0,0,0,0,0,0,0,0,0,0,0,0,0,0,0,0,0,0,0,0,0,0,0,0,0,0,0,0,0,0,0,0,0,0,0,0,0,0,0,0,0,0,0,0,0,0,0,0,0,0,0,0,0,0,0,0,0,0,0,0,0,0,0,0,0,
0,0,0,0,0,0,0,0,0,0,0,0,0,0,0,0,0,0,0,0,0,0,0,0,0,0,0,0,0,0,0,0,0,0,0,0,0,0,0,0,0,0,0,0,0,0,0,0,0,0,0,0,0,0,0,0,0,0,0,0,0,0,0,0,0,0,0,0,0,0,0,0,0,0,0,0,0,0,0,0,0,0,0,0,0,0,0,0,0,0,0,0,0,0,0,0,0,0,0,0,
0,0,0,0,0,0,0,0,0,0,0,0,0,0,0,0,0,0,0,0,0,0,0,0,0,0,0,0,0,0,0,0,0,0,0,0,0,0,0,0,0,0,0,0,0,0,0,0,0,0,0,0,0,0,0,0,0,0,0,0,0,0,0,0,0,0,0,0,0,0,0,0,0,0,0,0,0,0,0,0,0,0,0,0,0,0,0,0,0,0,0,0,0,0,0,0,0,0,0,0,
0,0,0,0,0,0,0,0,0,0,0,0,0,0,0,0,0,0,0,0,0,0,0,0,0,0,0,0,0,0,0,0,0,0,0,0,0,0,0,0,0,0,0,0,0,0,0,0,0,0,0,0,0,0,0,0,0,0,0,0,0,0,0,0,0,0,0,0,0,0,0,0,0,0,0,0,0,0,0,0,0,0,0,0,0,0,0,0,0,0,0,0,0,0,0,0,0,0,0,0,
0,0,0,0,0,0,0,0,0,0,0,0,0,0,0,0,0,0,0,0,0,0,0,0,0,0,0,0,0,0,0,0,0,0,0,0,0,0,0,0,0,0,0,0,0,0,0,0,0,0,0,0,0,0,0,0,0,0,0,0,0,0,0,0,0,0,0,0,0,0,0,0,0,0,0,0,0,0,0,0,0,0,0,0,0,0,0,0,0,0,0,0,0,0,0,0,0,0,0,0,
0,0,0,0,0,0,0,0,0,0,0,0,0,0,0,0,0,0,0,0,0,0,0,0,0,0,0,0,0,0,0,0,0,0,0,0,0,0,0,0,0,0,0,0,0,0,0,0,0,0,0,0,0,0,0,0,0,0,0,0,0,0,0,0,0,0,0,0,0,0,0,0,0,0,0,0,0,0,0,0,0,0,0,0,0,0,0,0,0,0,0,0,0,0,0,0,0,0,0,0,
0,0,0,0,0,0,0,0,0,0,0,0,0,0,0,0,0,0,0,0,0,0,0,0,0,0,0,0,0,0,0,0,0,0,0,0,0,0,0,0,0,0,0,0,0,0,0,0,0,0,0,0,0,0,0,0,0,0,0,0,0,0,0,0,0,0,0,0,0,0,0,0,0,0,0,0,0,0,0,0,0,0,0,0,0,0,0,0,0,0,0,0,0,0,0,0,0,0,0,0,
0,0,0,0,0,0,0,0,0,0,0,0,0,0,0,0,0,0,0,0,0,0,0,0,0,0,0,0,0,0,0,0,0,0,0,0,0,0,0,0,0,0,0,0,0,0,0,0,0,0,0,0,0,0,0,0,0,0,0,0,0,0,0,0,0,0,0,0,0,0,0,0,0,0,0,0,0,0,0,0,0,0,0,0,0,0,0,0,0,0,0,0,0,0,0,0,0,0,0,0
</data>
 </layer>
 <objectgroup id="2" name="Collision">
  <object id="13" x="280" y="499.333" width="22.6667" height="180.667"/>
  <object id="14" x="279.333" y="656.667" width="60" height="22.6666"/>
  <object id="15" x="315.667" y="460" width="25" height="218.667"/>
  <object id="16" x="200.667" y="460.667" width="138.667" height="24"/>
  <object id="17" x="140" y="495.667" width="158" height="22.3333"/>
  <object id="18" x="139.333" y="361.667" width="19.3333" height="155.667"/>
  <object id="19" x="140" y="360" width="79.3333" height="20"/>
  <object id="20" x="198.667" y="361" width="22" height="118.333"/>
  <object id="22" x="99.5" y="300.5" width="20.5" height="218"/>
  <object id="24" x="101" y="301.5" width="119" height="18.5"/>
  <object id="25" x="200" y="200.5" width="19.5" height="119"/>
  <object id="26" x="200" y="200" width="140" height="19.5"/>
  <object id="27" x="320" y="79.5" width="20" height="140"/>
  <object id="28" x="319.333" y="80" width="340" height="18.6667"/>
  <object id="29" x="640" y="79.3333" width="19.3333" height="80"/>
  <object id="30" x="640" y="140" width="120" height="18"/>
  <object id="31" x="740" y="0.666667" width="20" height="159.333"/>
  <object id="32" x="740" y="0" width="560" height="20"/>
  <object id="33" x="1280.25" y="0" width="19" height="139.25"/>
  <object id="34" x="1280" y="119.333" width="220" height="20"/>
  <object id="35" x="1480" y="119.333" width="18.6667" height="319.333"/>
  <object id="36" x="1480.67" y="420" width="238" height="19.3333"/>
  <object id="37" x="1440" y="480.667" width="280" height="18.6667"/>
  <object id="38" x="1440" y="479.333" width="19.3333" height="260.667"/>
  <object id="39" x="1360.67" y="720.667" width="97.3333" height="18.6667"/>
  <object id="40" x="1360.67" y="721.333" width="18.6667" height="338"/>
  <object id="41" x="460" y="1040" width="921.333" height="20"/>
  <object id="42" x="460.667" y="1040" width="19" height="159.333"/>
  <object id="44" x="-1" y="1179" width="481" height="20"/>
  <object id="45" x="-2" y="960" width="23" height="238"/>
  <object id="46" x="-1" y="958" width="100" height="21"/>
  <object id="47" x="80" y="920" width="19" height="59"/>
  <object id="48" x="1" y="920" width="98" height="18"/>
  <object id="49" x="1" y="860" width="20" height="78"/>
  <object id="50" x="0" y="859" width="100" height="20"/>
  <object id="51" x="79" y="799" width="21" height="80"/>
  <object id="52" x="58" y="800" width="40" height="18"/>
  <object id="53" x="59" y="500" width="22" height="320"/>
  <object id="54" x="59" y="500" width="62" height="18"/>
  <object id="55" x="280" y="699" width="20" height="120.5"/>
  <object id="56" x="120" y="800" width="180.5" height="20"/>
  <object id="57" x="120" y="800" width="19.5" height="79.5"/>
  <object id="58" x="119.5" y="860" width="221" height="19"/>
  <object id="59" x="320.5" y="700" width="19.5" height="179"/>
  <object id="60" x="280.5" y="699.5" width="60" height="20"/>
  <object id="61" x="119" y="919" width="279" height="20"/>
  <object id="62" x="380" y="460" width="19" height="479"/>
  <object id="63" x="380.333" y="460.333" width="119.667" height="19"/>
  <object id="64" x="480" y="460" width="20" height="540"/>
  <object id="65" x="460" y="961.333" width="40" height="38.6667"/>
  <object id="66" x="120" y="962.667" width="378.667" height="16"/>
  <object id="67" x="117.333" y="917.333" width="18.6667" height="61.3333"/>
  <object id="68" x="479.333" y="259.333" width="19.3333" height="158.667"/>
  <object id="69" x="261.333" y="399.333" width="238.667" height="18.6667"/>
  <object id="70" x="260" y="260" width="20" height="158.667"/>
  <object id="71" x="260" y="259.333" width="238.667" height="20"/>
  <object id="72" x="540" y="679.333" width="198.667" height="19.3333"/>
  <object id="73" x="540" y="679.333" width="19.3333" height="318.667"/>
  <object id="74" x="960" y="878.667" width="20" height="120"/>
  <object id="75" x="541.333" y="980" width="438.667" height="18.6667"/>
  <object id="76" x="1018.67" y="878.667" width="20" height="121.333"/>
  <object id="77" x="1021.33" y="978.667" width="278.667" height="21.3333"/>
  <object id="78" x="1277.33" y="721.333" width="24" height="278.667"/>
  <object id="79" x="1199.67" y="718.667" width="101.667" height="18.6667"/>
  <object id="80" x="1200.33" y="660" width="198.333" height="20"/>
  <object id="81" x="1381.33" y="420" width="20" height="260"/>
  <object id="82" x="1380" y="418.667" width="61.3333" height="22.6667"/>
  <object id="83" x="1417.33" y="178.667" width="21.3333" height="258.667"/>
  <object id="84" x="1281.33" y="178.667" width="157.333" height="21.3333"/>
  <object id="85" x="1280" y="177.333" width="18.6667" height="160"/>
  <object id="86" x="1020" y="318.667" width="280" height="18.6667"/>
  <object id="87" x="1020" y="318.667" width="17.3333" height="138.667"/>
  <object id="88" x="960" y="321.333" width="20" height="137.333"/>
  <object id="89" x="741.333" y="321.333" width="240" height="17.3333"/>
  <object id="90" x="740" y="200" width="20" height="137.333"/>
  <object id="91" x="638.667" y="198.667" width="120" height="21.3333"/>
  <object id="92" x="638.667" y="196" width="21.3333" height="444"/>
  <object id="93" x="638.667" y="620" width="100" height="18.6667"/>
  <object id="94" x="358.667" y="200" width="197.333" height="20"/>
  <object id="95" x="538.667" y="200" width="18.6667" height="438.667"/>
  <object id="96" x="538.667" y="622.667" width="58.6667" height="16"/>
  <object id="97" x="580" y="138.667" width="17.3333" height="498.667"/>
  <object id="98" x="360" y="138.667" width="238.667" height="21.3333"/>
  <object id="99" x="360" y="137.333" width="18.6667" height="82.6667"/>
  <object id="101" x="721" y="678" width="18" height="44"/>
  <object id="102" x="720" y="699" width="39" height="21"/>
  <object id="103" x="740" y="702" width="19" height="56"/>
  <object id="104" x="740" y="739" width="40" height="19"/>
  <object id="105" x="760" y="739" width="20" height="41"/>
  <object id="106" x="761" y="759" width="38" height="21"/>
  <object id="107" x="780" y="760" width="18" height="39"/>
  <object id="108" x="780" y="780" width="39" height="19"/>
  <object id="109" x="800" y="780" width="19" height="37"/>
  <object id="110" x="800" y="800" width="58" height="17"/>
  <object id="111" x="839" y="800" width="19" height="38"/>
  <object id="112" x="839" y="821" width="38" height="17"/>
  <object id="113" x="860" y="821" width="17" height="39"/>
  <object id="114" x="860" y="841" width="39" height="19"/>
  <object id="115" x="879" y="841" width="40" height="37"/>
  <object id="116" x="879" y="860" width="60" height="18"/>
  <object id="117" x="919" y="860" width="20" height="41"/>
  <object id="118" x="919" y="879" width="62" height="22"/>
  <object id="119" x="1021" y="879" width="56" height="17"/>
  <object id="120" x="1061" y="860" width="17" height="38"/>
  <object id="121" x="1061" y="860" width="61" height="19"/>
  <object id="122" x="1080" y="841" width="42" height="38"/>
  <object id="123" x="1080" y="840" width="59" height="21"/>
  <object id="124" x="1120" y="819" width="19" height="42"/>
  <object id="125" x="1119" y="819" width="39" height="21"/>
  <object id="126" x="1140" y="800" width="18" height="40"/>
  <object id="127" x="1140" y="800" width="39" height="19"/>
  <object id="128" x="1160" y="780" width="19" height="39"/>
  <object id="129" x="1160" y="780" width="40" height="19"/>
  <object id="130" x="1179.67" y="759.667" width="20" height="40"/>
  <object id="131" x="1179.67" y="759.667" width="40" height="20.3333"/>
  <object id="132" x="1200.33" y="719.333" width="19.3333" height="60.6667"/>
  <object id="133" x="1199.33" y="640" width="18.6667" height="40.6667"/>
  <object id="134" x="1178.67" y="639.333" width="43.3333" height="20.6667"/>
  <object id="135" x="1180.67" y="600.667" width="20.6667" height="59.3333"/>
  <object id="136" x="1141.33" y="601.333" width="59.3333" height="36.6667"/>
  <object id="137" x="1120.67" y="579.333" width="57.3333" height="38.6667"/>
  <object id="138" x="1139.33" y="520" width="19.3333" height="118.667"/>
  <object id="139" x="1120" y="521.333" width="40" height="17.3333"/>
  <object id="140" x="1119.33" y="500" width="20" height="40.6667"/>
  <object id="141" x="1100.67" y="500.667" width="38" height="19.3333"/>
  <object id="142" x="1100.67" y="480" width="19.3333" height="40"/>
  <object id="143" x="1079.33" y="480" width="40.6667" height="19.3333"/>
  <object id="144" x="1079.33" y="460.667" width="20.6667" height="38.6667"/>
  <object id="145" x="1060" y="460.667" width="40" height="18.6667"/>
  <object id="146" x="1060" y="439.333" width="18.6667" height="40"/>
  <object id="147" x="1020" y="439.333" width="59.3333" height="18.6667"/>
  <object id="148" x="719.333" y="600" width="20.6667" height="36.6667"/>
  <object id="149" x="720.667" y="600.667" width="97.3333" height="18.6667"/>
  <object id="150" x="740.667" y="580.667" width="77.3333" height="38.6667"/>
  <object id="151" x="738.667" y="517.333" width="80.6667" height="102.667"/>
  <object id="152" x="802.667" y="521.333" width="55.3333" height="18.6667"/>
  <object id="153" x="840.667" y="482.667" width="18" height="77.3333"/>
  <object id="154" x="840.667" y="480.667" width="78" height="39.3333"/>
  <object id="155" x="880" y="459.333" width="60" height="39.3333"/>
  <object id="156" x="918.667" y="440.667" width="63.3333" height="16.6667"/>
  <object id="157" x="918.667" y="440.667" width="21.3333" height="58.6667"/>
  <object id="159" x="920.5" y="541.5" width="39.5" height="77.5"/>
  <object id="160" x="1041" y="541.5" width="38" height="78.5"/>
  <object id="161" x="1080.5" y="701" width="39" height="79"/>
  <object id="162" x="981" y="681" width="39.5" height="78"/>
  <object id="165" x="820.182" y="680.364" width="39.6364" height="79.4545"/>
  <object id="166" x="81" y="520" width="18" height="277"/>
  <object id="167" x="81" y="520" width="39" height="39"/>
  <object id="168" x="79" y="699" width="40" height="81"/>
  <object id="169" x="78" y="740" width="163" height="19"/>
  <object id="170" x="159" y="699" width="20" height="58"/>
  <object id="171" x="141" y="680" width="21" height="40"/>
  <object id="172" x="139" y="701" width="39" height="18"/>
  <object id="173" x="141" y="600" width="18" height="58"/>
  <object id="174" x="138" y="540" width="24" height="38"/>
  <object id="175" x="140" y="540" width="39" height="19"/>
  <object id="176" x="160" y="503" width="19" height="56"/>
  <object id="177" x="199" y="500" width="20" height="61"/>
  <object id="178" x="198.667" y="500.667" width="41" height="38"/>
  <object id="179" x="262" y="500.333" width="36.3333" height="58.6667"/>
  <object id="181" x="200" y="599.667" width="20.3333" height="60.3333"/>
  <object id="182" x="200" y="680" width="20.6667" height="40"/>
  <object id="183" x="61" y="1019" width="58" height="177.5"/>
  <object id="184" x="160.5" y="1020" width="59.5" height="176.5"/>
  <object id="185" x="260" y="1019.5" width="60.5" height="180.5"/>
  <object id="186" x="361" y="1019.5" width="58" height="177"/>
  <object id="187" x="1039" y="80" width="60" height="199"/>
  <object id="188" x="1179" y="-1" width="62" height="261"/>
  <object id="189" x="901" y="100" width="58" height="238"/>
  <object id="190" x="801" y="1" width="61" height="257"/>
  <object id="191" x="746" y="80" width="70" height="17"/>
  <object id="192" x="780" y="79" width="20" height="38"/>
  <object id="193" x="881" y="139" width="100" height="20"/>
  <object id="194" x="960" y="118" width="19" height="40"/>
  <object id="195" x="960" y="118" width="40" height="21"/>
  <object id="196" x="980" y="100" width="20" height="39"/>
  <object id="197" x="1040" y="-1" width="38" height="43"/>
  <object id="198" x="1061" y="1" width="16" height="59"/>
  <object id="199" x="1101" y="259" width="39" height="23"/>
  <object id="200" x="1121" y="260" width="16" height="39"/>
  <object id="201" x="1099" y="301" width="19" height="32"/>
  <object id="202" x="1141" y="301" width="21" height="35"/>
  <object id="203" x="1238" y="300" width="53" height="39"/>
  <object id="204" x="1262" y="280" width="42" height="56"/>
  <object id="205" x="1428" y="-484"/>
 </objectgroup>
 <objectgroup id="5" name="Doors">
  <object id="206" x="1200" y="672.333" width="20" height="58.6667"/>
  <object id="207" x="966" y="438.667" width="68.6667" height="20"/>
  <object id="208" x="969.5" y="878.5" width="62" height="23.6667"/>
  <object id="209" x="1100.5" y="986.5" width="19" height="64"/>
  <object id="210" x="461" y="983" width="19" height="67"/>
  <object id="213" x="319.75" y="200" width="60" height="19.25"/>
 </objectgroup>
</map>
